Examples/LUT/Classic_Cinema_Custom.cube
TITLE "Classic Cinema - Custom Generated"
LUT_3D_SIZE 33
0.010000 0.000000 0.030000
0.039344 0.000000 0.029906
0.068628 0.000000 0.029633
0.097856 0.000000 0.029193
0.127033 0.000000 0.028599
0.156163 0.000000 0.027864
0.185250 0.000000 0.026999
0.214298 0.000000 0.026018
0.243311 0.000000 0.024932
0.272293 0.000000 0.023755
0.301250 0.000000 0.022499
0.330184 0.000000 0.021176
0.359100 0.000000 0.019799
0.388002 0.000000 0.018380
0.416894 0.000000 0.016933
0.445781 0.000000 0.015469
0.474667 0.000000 0.014001
0.503555 0.000000 0.012541
0.532451 0.000000 0.011103
0.561358 0.000000 0.009698
0.590280 0.000000 0.008339
0.619221 0.000000 0.007039
0.648187 0.000000 0.005810
0.677180 0.000000 0.004664
0.706205 0.000000 0.003615
0.735266 0.000000 0.002674
0.764368 0.000000 0.001854
0.793515 0.000000 0.001169
0.822710 0.000000 0.000629
0.851958 0.000000 0.000248
0.881263 0.000000 0.000039
0.910625 0.000000 0.000000
0.940000 0.000000 0.000000
0.009969 0.009438 0.029906
0.039253 0.009620 0.029633
0.068481 0.009913 0.029193
0.097658 0.010309 0.028599
0.126788 0.010799 0.027864
0.155875 0.011376 0.026999
0.184923 0.012030 0.026018
0.213936 0.012754 0.024932
0.242918 0.013538 0.023755
0.271875 0.014376 0.022499
0.300809 0.015258 0.021176
0.329725 0.016176 0.019799
0.358627 0.017122 0.018380
0.387519 0.018087 0.016933
0.416406 0.019063 0.015469
0.445292 0.020041 0.014001
0.474180 0.021014 0.012541
0.503076 0.021973 0.011103
0.531983 0.022910 0.009698
0.560905 0.023816 0.008339
0.589846 0.024683 0.007039
0.618812 0.025502 0.005810
0.647805 0.026266 0.004664
0.676830 0.026965 0.003615
0.705891 0.027592 0.002674
0.734993 0.028139 0.001854
0.764140 0.028596 0.001169
0.793335 0.028956 0.000629
0.822583 0.029210 0.000248
0.851888 0.029349 0.000039
0.881250 0.029375 0.000000
0.910625 0.029375 0.000000
0.940000 0.029375 0.000000
0.009878 0.038995 0.029633
0.039106 0.039288 0.029193
0.068283 0.039684 0.028599
0.097413 0.040174 0.027864
0.126500 0.040751 0.026999
0.155548 0.041405 0.026018
0.184561 0.042129 0.024932
0.213543 0.042913 0.023755
0.242500 0.043751 0.022499
0.271434 0.044633 0.021176
0.300350 0.045551 0.019799
0.329252 0.046497 0.018380
0.358144 0.047462 0.016933
0.387031 0.048438 0.015469
0.415917 0.049416 0.014001
0.444805 0.050389 0.012541
0.473701 0.051348 0.011103
0.502608 0.052285 0.009698
0.531530 0.053191 0.008339
0.560471 0.054058 0.007039
0.589437 0.054877 0.005810
0.618430 0.055641 0.004664
0.647455 0.056340 0.003615
0.676516 0.056967 0.002674
0.705618 0.057514 0.001854
0.734765 0.057971 0.001169
0.763960 0.058331 0.000629
0.793208 0.058585 0.000248
0.822513 0.058724 0.000039
0.851875 0.058750 0.000000
0.881250 0.058750 0.000000
0.910625 0.058750 0.000000
0.940000 0.058750 0.000000
0.009731 0.068663 0.029193
0.038908 0.069059 0.028599
0.068038 0.069549 0.027864
0.097125 0.070126 0.026999
0.126173 0.070780 0.026018
0.155186 0.071504 0.024932
0.184168 0.072288 0.023755
0.213125 0.073126 0.022499
0.242059 0.074008 0.021176
0.270975 0.074926 0.019799
0.299877 0.075872 0.018380
0.328769 0.076837 0.016933
0.357656 0.077813 0.015469
0.386542 0.078791 0.014001
0.415430 0.079764 0.012541
0.444326 0.080723 0.011103
0.473233 0.081660 0.009698
0.502155 0.082566 0.008339
0.531096 0.083433 0.007039
0.560062 0.084252 0.005810
0.589055 0.085016 0.004664
0.618080 0.085715 0.003615
0.647141 0.086342 0.002674
0.676243 0.086889 0.001854
0.705390 0.087346 0.001169
0.734585 0.087706 0.000629
0.763833 0.087960 0.000248
0.793138 0.088099 0.000039
0.822500 0.088125 0.000000
0.851875 0.088125 0.000000
0.881250 0.088125 0.000000
0.910625 0.088125 0.000000
0.940000 0.088125 0.000000
0.009533 0.098434 0.028599
0.038663 0.098924 0.027864
0.067750 0.099501 0.026999
0.096798 0.100155 0.026018
0.125811 0.100879 0.024932
0.154793 0.101663 0.023755
0.183750 0.102501 0.022499
0.212684 0.103383 0.021176
0.241600 0.104301 0.019799
0.270502 0.105247 0.018380
0.299394 0.106212 0.016933
0.328281 0.107188 0.015469
0.357167 0.108166 0.014001
0.386055 0.109139 0.012541
0.414951 0.110098 0.011103
0.443858 0.111035 0.009698
0.472780 0.111941 0.008339
0.501721 0.112808 0.007039
0.530687 0.113627 0.005810
0.559680 0.114391 0.004664
0.588705 0.115090 0.003615
0.617766 0.115717 0.002674
0.646868 0.116264 0.001854
0.676015 0.116721 0.001169
0.705210 0.117081 0.000629
0.734458 0.117335 0.000248
0.763763 0.117474 0.000039
0.793125 0.117500 0.000000
0.822500 0.117500 0.000000
0.851875 0.117500 0.000000
0.881250 0.117500 0.000000
0.910625 0.117500 0.000000
0.940000 0.117500 0.000000
0.009288 0.128299 0.027864
0.038375 0.128876 0.026999
0.067423 0.129530 0.026018
0.096436 0.130254 0.024932
0.125418 0.131038 0.023755
0.154375 0.131876 0.022499
0.183309 0.132758 0.021176
0.212225 0.133676 0.019799
0.241127 0.134622 0.018380
0.270019 0.135587 0.016933
0.298906 0.136563 0.015469
0.327792 0.137541 0.014001
0.356680 0.138514 0.012541
0.385576 0.139473 0.011103
0.414483 0.140410 0.009698
0.443405 0.141316 0.008339
0.472346 0.142183 0.007039
0.501312 0.143002 0.005810
0.530305 0.143766 0.004664
0.559330 0.144465 0.003615
0.588391 0.145092 0.002674
0.617493 0.145639 0.001854
0.646640 0.146096 0.001169
0.675835 0.146456 0.000629
0.705083 0.146710 0.000248
0.734388 0.146849 0.000039
0.763750 0.146875 0.000000
0.793125 0.146875 0.000000
0.822500 0.146875 0.000000
0.851875 0.146875 0.000000
0.881250 0.146875 0.000000
0.910625 0.146875 0.000000
0.940000 0.146875 0.000000
0.009000 0.158251 0.026999
0.038048 0.158905 0.026018
0.067061 0.159629 0.024932
0.096043 0.160413 0.023755
0.125000 0.161251 0.022499
0.153934 0.162133 0.021176
0.182850 0.163051 0.019799
0.211752 0.163997 0.018380
0.240644 0.164962 0.016933
0.269531 0.165938 0.015469
0.298417 0.166916 0.014001
0.327305 0.167889 0.012541
0.356201 0.168848 0.011103
0.385108 0.169785 0.009698
0.414030 0.170691 0.008339
0.442971 0.171558 0.007039
0.471937 0.172377 0.005810
0.500930 0.173141 0.004664
0.529955 0.173840 0.003615
0.559016 0.174467 0.002674
0.588118 0.175014 0.001854
0.617265 0.175471 0.001169
0.646460 0.175831 0.000629
0.675708 0.176085 0.000248
0.705013 0.176224 0.000039
0.734375 0.176250 0.000000
0.763750 0.176250 0.000000
0.793125 0.176250 0.000000
0.822500 0.176250 0.000000
0.851875 0.176250 0.000000
0.881250 0.176250 0.000000
0.910625 0.176250 0.000000
0.940000 0.176250 0.000000
0.008673 0.188280 0.026018
0.037686 0.189004 0.024932
0.066668 0.189788 0.023755
0.095625 0.190626 0.022499
0.124559 0.191508 0.021176
0.153475 0.192426 0.019799
0.182377 0.193372 0.018380
0.211269 0.194337 0.016933
0.240156 0.195313 0.015469
0.269042 0.196291 0.014001
0.297930 0.197264 0.012541
0.326826 0.198223 0.011103
0.355733 0.199160 0.009698
0.384655 0.200066 0.008339
0.413596 0.200933 0.007039
0.442562 0.201752 0.005810
0.471555 0.202516 0.004664
0.500580 0.203215 0.003615
0.529641 0.203842 0.002674
0.558743 0.204389 0.001854
0.587890 0.204846 0.001169
0.617085 0.205206 0.000629
0.646333 0.205460 0.000248
0.675638 0.205599 0.000039
0.705000 0.205625 0.000000
0.734375 0.205625 0.000000
0.763750 0.205625 0.000000
0.793125 0.205625 0.000000
0.822500 0.205625 0.000000
0.851875 0.205625 0.000000
0.881250 0.205625 0.000000
0.910625 0.205625 0.000000
0.940000 0.205625 0.000000
0.008311 0.218379 0.024932
0.037293 0.219163 0.023755
0.066250 0.220001 0.022499
0.095184 0.220883 0.021176
0.124100 0.221801 0.019799
0.153002 0.222747 0.018380
0.181894 0.223712 0.016933
0.210781 0.224688 0.015469
0.239667 0.225666 0.014001
0.268555 0.226639 0.012541
0.297451 0.227598 0.011103
0.326358 0.228535 0.009698
0.355280 0.229441 0.008339
0.384221 0.230308 0.007039
0.413187 0.231127 0.005810
0.442180 0.231891 0.004664
0.471205 0.232590 0.003615
0.500266 0.233217 0.002674
0.529368 0.233764 0.001854
0.558515 0.234221 0.001169
0.587710 0.234581 0.000629
0.616958 0.234835 0.000248
0.646263 0.234974 0.000039
0.675625 0.235000 0.000000
0.705000 0.235000 0.000000
0.734375 0.235000 0.000000
0.763750 0.235000 0.000000
0.793125 0.235000 0.000000
0.822500 0.235000 0.000000
0.851875 0.235000 0.000000
0.881250 0.235000 0.000000
0.910625 0.235000 0.000000
0.940000 0.235000 0.000000
0.007918 0.248538 0.023755
0.036875 0.249376 0.022499
0.065809 0.250258 0.021176
0.094725 0.251176 0.019799
0.123627 0.252122 0.018380
0.152519 0.253087 0.016933
0.181406 0.254063 0.015469
0.210292 0.255041 0.014001
0.239180 0.256014 0.012541
0.268076 0.256973 0.011103
0.296983 0.257910 0.009698
0.325905 0.258816 0.008339
0.354846 0.259683 0.007039
0.383812 0.260502 0.005810
0.412805 0.261266 0.004664
0.441830 0.261965 0.003615
0.470891 0.262592 0.002674
0.499993 0.263139 0.001854
0.529140 0.263596 0.001169
0.558335 0.263956 0.000629
0.587583 0.264210 0.000248
0.616888 0.264349 0.000039
0.646250 0.264375 0.000000
0.675625 0.264375 0.000000
0.705000 0.264375 0.000000
0.734375 0.264375 0.000000
0.763750 0.264375 0.000000
0.793125 0.264375 0.000000
0.822500 0.264375 0.000000
0.851875 0.264375 0.000000
0.881250 0.264375 0.000000
0.910625 0.264375 0.000000
0.940000 0.264375 0.000000
0.007500 0.278751 0.022499
0.036434 0.279633 0.021176
0.065350 0.280551 0.019799
0.094252 0.281497 0.018380
0.123144 0.282462 0.016933
0.152031 0.283438 0.015469
0.180917 0.284416 0.014001
0.209805 0.285389 0.012541
0.238701 0.286348 0.011103
0.267608 0.287285 0.009698
0.296530 0.288191 0.008339
0.325471 0.289058 0.007039
0.354437 0.289877 0.005810
0.383430 0.290641 0.004664
0.412455 0.291340 0.003615
0.441516 0.291967 0.002674
0.470618 0.292514 0.001854
0.499765 0.292971 0.001169
0.528960 0.293331 0.000629
0.558208 0.293585 0.000248
0.587513 0.293724 0.000039
0.616875 0.293750 0.000000
0.646250 0.293750 0.000000
0.675625 0.293750 0.000000
0.705000 0.293750 0.000000
0.734375 0.293750 0.000000
0.763750 0.293750 0.000000
0.793125 0.293750 0.000000
0.822500 0.293750 0.000000
0.851875 0.293750 0.000000
0.881250 0.293750 0.000000
0.910625 0.293750 0.000000
0.940000 0.293750 0.000000
0.007059 0.309008 0.021176
0.035975 0.309926 0.019799
0.064877 0.310872 0.018380
0.093769 0.311837 0.016933
0.122656 0.312813 0.015469
0.151542 0.313791 0.014001
0.180430 0.314764 0.012541
0.209326 0.315723 0.011103
0.238233 0.316660 0.009698
0.267155 0.317566 0.008339
0.296096 0.318433 0.007039
0.325062 0.319252 0.005810
0.354055 0.320016 0.004664
0.383080 0.320715 0.003615
0.412141 0.321342 0.002674
0.441243 0.321889 0.001854
0.470390 0.322346 0.001169
0.499585 0.322706 0.000629
0.528833 0.322960 0.000248
0.558138 0.323099 0.000039
0.587500 0.323125 0.000000
0.616875 0.323125 0.000000
0.646250 0.323125 0.000000
0.675625 0.323125 0.000000
0.705000 0.323125 0.000000
0.734375 0.323125 0.000000
0.763750 0.323125 0.000000
0.793125 0.323125 0.000000
0.822500 0.323125 0.000000
0.851875 0.323125 0.000000
0.881250 0.323125 0.000000
0.910625 0.323125 0.000000
0.940000 0.323125 0.000000
0.006600 0.339301 0.019799
0.035502 0.340247 0.018380
0.064394 0.341212 0.016933
0.093281 0.342188 0.015469
0.122167 0.343166 0.014001
0.151055 0.344139 0.012541
0.179951 0.345098 0.011103
0.208858 0.346035 0.009698
0.237780 0.346941 0.008339
0.266721 0.347808 0.007039
0.295687 0.348627 0.005810
0.324680 0.349391 0.004664
0.353705 0.350090 0.003615
0.382766 0.350717 0.002674
0.411868 0.351264 0.001854
0.441015 0.351721 0.001169
0.470210 0.352081 0.000629
0.499458 0.352335 0.000248
0.528763 0.352474 0.000039
0.558125 0.352500 0.000000
0.587500 0.352500 0.000000
0.616875 0.352500 0.000000
0.646250 0.352500 0.000000
0.675625 0.352500 0.000000
0.705000 0.352500 0.000000
0.734375 0.352500 0.000000
0.763750 0.352500 0.000000
0.793125 0.352500 0.000000
0.822500 0.352500 0.000000
0.851875 0.352500 0.000000
0.881250 0.352500 0.000000
0.910625 0.352500 0.000000
0.940000 0.352500 0.000000
0.006127 0.369622 0.018380
0.035019 0.370587 0.016933
0.063906 0.371563 0.015469
0.092792 0.372541 0.014001
0.121680 0.373514 0.012541
0.150576 0.374473 0.011103
0.179483 0.375410 0.009698
0.208405 0.376316 0.008339
0.237346 0.377183 0.007039
0.266312 0.378002 0.005810
0.295305 0.378766 0.004664
0.324330 0.379465 0.003615
0.353391 0.380092 0.002674
0.382493 0.380639 0.001854
0.411640 0.381096 0.001169
0.440835 0.381456 0.000629
0.470083 0.381710 0.000248
0.499388 0.381849 0.000039
0.528750 0.381875 0.000000
0.558125 0.381875 0.000000
0.587500 0.381875 0.000000
0.616875 0.381875 0.000000
0.646250 0.381875 0.000000
0.675625 0.381875 0.000000
0.705000 0.381875 0.000000
0.734375 0.381875 0.000000
0.763750 0.381875 0.000000
0.793125 0.381875 0.000000
0.822500 0.381875 0.000000
0.851875 0.381875 0.000000
0.881250 0.381875 0.000000
0.910625 0.381875 0.000000
0.940000 0.381875 0.000000
0.005644 0.399962 0.016933
0.034531 0.400938 0.015469
0.063417 0.401916 0.014001
0.092305 0.402889 0.012541
0.121201 0.403848 0.011103
0.150108 0.404785 0.009698
0.179030 0.405691 0.008339
0.207971 0.406558 0.007039
0.236937 0.407377 0.005810
0.265930 0.408141 0.004664
0.294955 0.408840 0.003615
0.324016 0.409467 0.002674
0.353118 0.410014 0.001854
0.382265 0.410471 0.001169
0.411460 0.410831 0.000629
0.440708 0.411085 0.000248
0.470013 0.411224 0.000039
0.499375 0.411250 0.000000
0.528750 0.411250 0.000000
0.558125 0.411250 0.000000
0.587500 0.411250 0.000000
0.616875 0.411250 0.000000
0.646250 0.411250 0.000000
0.675625 0.411250 0.000000
0.705000 0.411250 0.000000
0.734375 0.411250 0.000000
0.763750 0.411250 0.000000
0.793125 0.411250 0.000000
0.822500 0.411250 0.000000
0.851875 0.411250 0.000000
0.881250 0.411250 0.000000
0.910625 0.411250 0.000000
0.940000 0.411250 0.000000
0.005156 0.430313 0.015469
0.034042 0.431291 0.014001
0.062930 0.432264 0.012541
0.091826 0.433223 0.011103
0.120733 0.434160 0.009698
0.149655 0.435066 0.008339
0.178596 0.435933 0.007039
0.207562 0.436752 0.005810
0.236555 0.437516 0.004664
0.265580 0.438215 0.003615
0.294641 0.438842 0.002674
0.323743 0.439389 0.001854
0.352890 0.439846 0.001169
0.382085 0.440206 0.000629
0.411333 0.440460 0.000248
0.440638 0.440599 0.000039
0.470000 0.440625 0.000000
0.499375 0.440625 0.000000
0.528750 0.440625 0.000000
0.558125 0.440625 0.000000
0.587500 0.440625 0.000000
0.616875 0.440625 0.000000
0.646250 0.440625 0.000000
0.675625 0.440625 0.000000
0.705000 0.440625 0.000000
0.734375 0.440625 0.000000
0.763750 0.440625 0.000000
0.793125 0.440625 0.000000
0.822500 0.440625 0.000000
0.851875 0.440625 0.000000
0.881250 0.440625 0.000000
0.910625 0.440625 0.000000
0.940000 0.440625 0.000000
0.004667 0.460666 0.014001
0.033555 0.461639 0.012541
0.062451 0.462598 0.011103
0.091358 0.463535 0.009698
0.120280 0.464441 0.008339
0.149221 0.465308 0.007039
0.178187 0.466127 0.005810
0.207180 0.466891 0.004664
0.236205 0.467590 0.003615
0.265266 0.468217 0.002674
0.294368 0.468764 0.001854
0.323515 0.469221 0.001169
0.352710 0.469581 0.000629
0.381958 0.469835 0.000248
0.411263 0.469974 0.000039
0.440625 0.470000 0.000000
0.470000 0.470000 0.000000
0.499375 0.470000 0.000000
0.528750 0.470000 0.000000
0.558125 0.470000 0.000000
0.587500 0.470000 0.000000
0.616875 0.470000 0.000000
0.646250 0.470000 0.000000
0.675625 0.470000 0.000000
0.705000 0.470000 0.000000
0.734375 0.470000 0.000000
0.763750 0.470000 0.000000
0.793125 0.470000 0.000000
0.822500 0.470000 0.000000
0.851875 0.470000 0.000000
0.881250 0.470000 0.000000
0.910625 0.470000 0.000000
0.940000 0.470000 0.000000
0.004180 0.491014 0.012541
0.033076 0.491973 0.011103
0.061983 0.492910 0.009698
0.090905 0.493816 0.008339
0.119846 0.494683 0.007039
0.148812 0.495502 0.005810
0.177805 0.496266 0.004664
0.206830 0.496965 0.003615
0.235891 0.497592 0.002674
0.264993 0.498139 0.001854
0.294140 0.498596 0.001169
0.323335 0.498956 0.000629
0.352583 0.499210 0.000248
0.381888 0.499349 0.000039
0.411250 0.499375 0.000000
0.440625 0.499375 0.000000
0.470000 0.499375 0.000000
0.499375 0.499375 0.000000
0.528750 0.499375 0.000000
0.558125 0.499375 0.000000
0.587500 0.499375 0.000000
0.616875 0.499375 0.000000
0.646250 0.499375 0.000000
0.675625 0.499375 0.000000
0.705000 0.499375 0.000000
0.734375 0.499375 0.000000
0.763750 0.499375 0.000000
0.793125 0.499375 0.000000
0.822500 0.499375 0.000000
0.851875 0.499375 0.000000
0.881250 0.499375 0.000000
0.910625 0.499375 0.000000
0.940000 0.499375 0.000000
0.003701 0.521348 0.011103
0.032608 0.522285 0.009698
0.061530 0.523191 0.008339
0.090471 0.524058 0.007039
0.119437 0.524877 0.005810
0.148430 0.525641 0.004664
0.177455 0.526340 0.003615
0.206516 0.526967 0.002674
0.235618 0.527514 0.001854
0.264765 0.527971 0.001169
0.293960 0.528331 0.000629
0.323208 0.528585 0.000248
0.352513 0.528724 0.000039
0.381875 0.528750 0.000000
0.411250 0.528750 0.000000
0.440625 0.528750 0.000000
0.470000 0.528750 0.000000
0.499375 0.528750 0.000000
0.528750 0.528750 0.000000
0.558125 0.528750 0.000000
0.587500 0.528750 0.000000
0.616875 0.528750 0.000000
0.646250 0.528750 0.000000
0.675625 0.528750 0.000000
0.705000 0.528750 0.000000
0.734375 0.528750 0.000000
0.763750 0.528750 0.000000
0.793125 0.528750 0.000000
0.822500 0.528750 0.000000
0.851875 0.528750 0.000000
0.881250 0.528750 0.000000
0.910625 0.528750 0.000000
0.940000 0.528750 0.000000
0.003233 0.551660 0.009698
0.032155 0.552566 0.008339
0.061096 0.553433 0.007039
0.090062 0.554252 0.005810
0.119055 0.555016 0.004664
0.148080 0.555715 0.003615
0.177141 0.556342 0.002674
0.206243 0.556889 0.001854
0.235390 0.557346 0.001169
0.264585 0.557706 0.000629
0.293833 0.557960 0.000248
0.323138 0.558099 0.000039
0.352500 0.558125 0.000000
0.381875 0.558125 0.000000
0.411250 0.558125 0.000000
0.440625 0.558125 0.000000
0.470000 0.558125 0.000000
0.499375 0.558125 0.000000
0.528750 0.558125 0.000000
0.558125 0.558125 0.000000
0.587500 0.558125 0.000000
0.616875 0.558125 0.000000
0.646250 0.558125 0.000000
0.675625 0.558125 0.000000
0.705000 0.558125 0.000000
0.734375 0.558125 0.000000
0.763750 0.558125 0.000000
0.793125 0.558125 0.000000
0.822500 0.558125 0.000000
0.851875 0.558125 0.000000
0.881250 0.558125 0.000000
0.910625 0.558125 0.000000
0.940000 0.558125 0.000000
0.002780 0.581941 0.008339
0.031721 0.582808 0.007039
0.060687 0.583627 0.005810
0.089680 0.584391 0.004664
0.118705 0.585090 0.003615
0.147766 0.585717 0.002674
0.176868 0.586264 0.001854
0.206015 0.586721 0.001169
0.235210 0.587081 0.000629
0.264458 0.587335 0.000248
0.293763 0.587474 0.000039
0.323125 0.587500 0.000000
0.352500 0.587500 0.000000
0.381875 0.587500 0.000000
0.411250 0.587500 0.000000
0.440625 0.587500 0.000000
0.470000 0.587500 0.000000
0.499375 0.587500 0.000000
0.528750 0.587500 0.000000
0.558125 0.587500 0.000000
0.587500 0.587500 0.000000
0.616875 0.587500 0.000000
0.646250 0.587500 0.000000
0.675625 0.587500 0.000000
0.705000 0.587500 0.000000
0.734375 0.587500 0.000000
0.763750 0.587500 0.000000
0.793125 0.587500 0.000000
0.822500 0.587500 0.000000
0.851875 0.587500 0.000000
0.881250 0.587500 0.000000
0.910625 0.587500 0.000000
0.940000 0.587500 0.000000
0.002346 0.612183 0.007039
0.031312 0.613002 0.005810
0.060305 0.613766 0.004664
0.089330 0.614465 0.003615
0.118391 0.615092 0.002674
0.147493 0.615639 0.001854
0.176640 0.616096 0.001169
0.205835 0.616456 0.000629
0.235083 0.616710 0.000248
0.264388 0.616849 0.000039
0.293750 0.616875 0.000000
0.323125 0.616875 0.000000
0.352500 0.616875 0.000000
0.381875 0.616875 0.000000
0.411250 0.616875 0.000000
0.440625 0.616875 0.000000
0.470000 0.616875 0.000000
0.499375 0.616875 0.000000
0.528750 0.616875 0.000000
0.558125 0.616875 0.000000
0.587500 0.616875 0.000000
0.616875 0.616875 0.000000
0.646250 0.616875 0.000000
0.675625 0.616875 0.000000
0.705000 0.616875 0.000000
0.734375 0.616875 0.000000
0.763750 0.616875 0.000000
0.793125 0.616875 0.000000
0.822500 0.616875 0.000000
0.851875 0.616875 0.000000
0.881250 0.616875 0.000000
0.910625 0.616875 0.000000
0.940000 0.616875 0.000000
0.001937 0.642377 0.005810
0.030930 0.643141 0.004664
0.059955 0.643840 0.003615
0.089016 0.644467 0.002674
0.118118 0.645014 0.001854
0.147265 0.645471 0.001169
0.176460 0.645831 0.000629
0.205708 0.646085 0.000248
0.235013 0.646224 0.000039
0.264375 0.646250 0.000000
0.293750 0.646250 0.000000
0.323125 0.646250 0.000000
0.352500 0.646250 0.000000
0.381875 0.646250 0.000000
0.411250 0.646250 0.000000
0.440625 0.646250 0.000000
0.470000 0.646250 0.000000
0.499375 0.646250 0.000000
0.528750 0.646250 0.000000
0.558125 0.646250 0.000000
0.587500 0.646250 0.000000
0.616875 0.646250 0.000000
0.646250 0.646250 0.000000
0.675625 0.646250 0.000000
0.705000 0.646250 0.000000
0.734375 0.646250 0.000000
0.763750 0.646250 0.000000
0.793125 0.646250 0.000000
0.822500 0.646250 0.000000
0.851875 0.646250 0.000000
0.881250 0.646250 0.000000
0.910625 0.646250 0.000000
0.940000 0.646250 0.000000
0.001555 0.672516 0.004664
0.030580 0.673215 0.003615
0.059641 0.673842 0.002674
0.088743 0.674389 0.001854
0.117890 0.674846 0.001169
0.147085 0.675206 0.000629
0.176333 0.675460 0.000248
0.205638 0.675599 0.000039
0.235000 0.675625 0.000000
0.264375 0.675625 0.000000
0.293750 0.675625 0.000000
0.323125 0.675625 0.000000
0.352500 0.675625 0.000000
0.381875 0.675625 0.000000
0.411250 0.675625 0.000000
0.440625 0.675625 0.000000
0.470000 0.675625 0.000000
0.499375 0.675625 0.000000
0.528750 0.675625 0.000000
0.558125 0.675625 0.000000
0.587500 0.675625 0.000000
0.616875 0.675625 0.000000
0.646250 0.675625 0.000000
0.675625 0.675625 0.000000
0.705000 0.675625 0.000000
0.734375 0.675625 0.000000
0.763750 0.675625 0.000000
0.793125 0.675625 0.000000
0.822500 0.675625 0.000000
0.851875 0.675625 0.000000
0.881250 0.675625 0.000000
0.910625 0.675625 0.000000
0.940000 0.675625 0.000000
0.001205 0.702590 0.003615
0.030266 0.703217 0.002674
0.059368 0.703764 0.001854
0.088515 0.704221 0.001169
0.117710 0.704581 0.000629
0.146958 0.704835 0.000248
0.176263 0.704974 0.000039
0.205625 0.705000 0.000000
0.235000 0.705000 0.000000
0.264375 0.705000 0.000000
0.293750 0.705000 0.000000
0.323125 0.705000 0.000000
0.352500 0.705000 0.000000
0.381875 0.705000 0.000000
0.411250 0.705000 0.000000
0.440625 0.705000 0.000000
0.470000 0.705000 0.000000
0.499375 0.705000 0.000000
0.528750 0.705000 0.000000
0.558125 0.705000 0.000000
0.587500 0.705000 0.000000
0.616875 0.705000 0.000000
0.646250 0.705000 0.000000
0.675625 0.705000 0.000000
0.705000 0.705000 0.000000
0.734375 0.705000 0.000000
0.763750 0.705000 0.000000
0.793125 0.705000 0.000000
0.822500 0.705000 0.000000
0.851875 0.705000 0.000000
0.881250 0.705000 0.000000
0.910625 0.705000 0.000000
0.940000 0.705000 0.000000
0.000891 0.732592 0.002674
0.029993 0.733139 0.001854
0.059140 0.733596 0.001169
0.088335 0.733956 0.000629
0.117583 0.734210 0.000248
0.146888 0.734349 0.000039
0.176250 0.734375 0.000000
0.205625 0.734375 0.000000
0.235000 0.734375 0.000000
0.264375 0.734375 0.000000
0.293750 0.734375 0.000000
0.323125 0.734375 0.000000
0.352500 0.734375 0.000000
0.381875 0.734375 0.000000
0.411250 0.734375 0.000000
0.440625 0.734375 0.000000
0.470000 0.734375 0.000000
0.499375 0.734375 0.000000
0.528750 0.734375 0.000000
0.558125 0.734375 0.000000
0.587500 0.734375 0.000000
0.616875 0.734375 0.000000
0.646250 0.734375 0.000000
0.675625 0.734375 0.000000
0.705000 0.734375 0.000000
0.734375 0.734375 0.000000
0.763750 0.734375 0.000000
0.793125 0.734375 0.000000
0.822500 0.734375 0.000000
0.851875 0.734375 0.000000
0.881250 0.734375 0.000000
0.910625 0.734375 0.000000
0.940000 0.734375 0.000000
0.000618 0.762514 0.001854
0.029765 0.762971 0.001169
0.058960 0.763331 0.000629
0.088208 0.763585 0.000248
0.117513 0.763724 0.000039
0.146875 0.763750 0.000000
0.176250 0.763750 0.000000
0.205625 0.763750 0.000000
0.235000 0.763750 0.000000
0.264375 0.763750 0.000000
0.293750 0.763750 0.000000
0.323125 0.763750 0.000000
0.352500 0.763750 0.000000
0.381875 0.763750 0.000000
0.411250 0.763750 0.000000
0.440625 0.763750 0.000000
0.470000 0.763750 0.000000
0.499375 0.763750 0.000000
0.528750 0.763750 0.000000
0.558125 0.763750 0.000000
0.587500 0.763750 0.000000
0.616875 0.763750 0.000000
0.646250 0.763750 0.000000
0.675625 0.763750 0.000000
0.705000 0.763750 0.000000
0.734375 0.763750 0.000000
0.763750 0.763750 0.000000
0.793125 0.763750 0.000000
