Examples/LUT/Classic_Cinema_Custom.cube
TITLE "Classic Cinema - Custom Generated"
LUT_3D_SIZE 9
0.010000 0.000000 0.030000
0.127033 0.000000 0.028599
0.243311 0.000000 0.024932
0.359100 0.000000 0.019799
0.474667 0.000000 0.014001
0.590280 0.000000 0.008339
0.706205 0.000000 0.003615
0.822710 0.000000 0.000629
0.940000 0.000000 0.000000
0.009533 0.098434 0.028599
0.125811 0.100879 0.024932
0.241600 0.104301 0.019799
0.357167 0.108166 0.014001
0.472780 0.111941 0.008339
0.588705 0.115090 0.003615
0.705210 0.117081 0.000629
0.822500 0.117500 0.000000
0.940000 0.117500 0.000000
0.008311 0.218379 0.024932
0.124100 0.221801 0.019799
0.239667 0.225666 0.014001
0.355280 0.229441 0.008339
0.471205 0.232590 0.003615
0.587710 0.234581 0.000629
0.705000 0.235000 0.000000
0.822500 0.235000 0.000000
0.940000 0.235000 0.000000
0.006600 0.339301 0.019799
0.122167 0.343166 0.014001
0.237780 0.346941 0.008339
0.353705 0.350090 0.003615
0.470210 0.352081 0.000629
0.587500 0.352500 0.000000
0.705000 0.352500 0.000000
0.822500 0.352500 0.000000
0.940000 0.352500 0.000000
0.004667 0.460666 0.014001
0.120280 0.464441 0.008339
0.236205 0.467590 0.003615
0.352710 0.469581 0.000629
0.470000 0.470000 0.000000
0.587500 0.470000 0.000000
0.705000 0.470000 0.000000
0.822500 0.470000 0.000000
0.940000 0.470000 0.000000
0.002780 0.581941 0.008339
0.118705 0.585090 0.003615
0.235210 0.587081 0.000629
0.352500 0.587500 0.000000
0.470000 0.587500 0.000000
0.587500 0.587500 0.000000
0.705000 0.587500 0.000000
0.822500 0.587500 0.000000
0.940000 0.587500 0.000000
0.001205 0.702590 0.003615
0.117710 0.704581 0.000629
0.235000 0.705000 0.000000
0.352500 0.705000 0.000000
0.470000 0.705000 0.000000
0.587500 0.705000 0.000000
0.705000 0.705000 0.000000
0.822500 0.705000 0.000000
0.940000 0.705000 0.000000
0.000210 0.822081 0.000629
0.117500 0.822500 0.000000
0.235000 0.822500 0.000000
0.352500 0.822500 0.000000
0.470000 0.822500 0.000000
0.587500 0.822500 0.000000
0.705000 0.822500 0.000000
0.822500 0.822500 0.000000
0.940000 0.822500 0.000000
0.000000 0.940000 0.000000
0.117500 0.940000 0.000000
0.235000 0.940000 0.000000
0.352500 0.940000 0.000000
0.470000 0.940000 0.000000
0.587500 0.940000 0.000000
0.705000 0.940000 0.000000
0.822500 0.940000 0.000000
0.940000 0.940000 0.000000
0.009533 0.000000 0.146099
0.125811 0.000000 0.142432
0.241600 0.000000 0.137299
0.357167 0.000000 0.131501
0.472780 0.000000 0.125839
0.588705 0.000000 0.121115
0.705210 0.000000 0.118129
0.822500 0.000000 0.117500
0.940000 0.000000 0.117500
0.008311 0.100879 0.142432
0.124100 0.104301 0.137299
0.239667 0.108166 0.131501
0.355280 0.111941 0.125839
0.471205 0.115090 0.121115
0.587710 0.117081 0.118129
0.705000 0.117500 0.117500
0.822500 0.117500 0.117500
0.940000 0.117500 0.117500
0.006600 0.221801 0.137299
0.122167 0.225666 0.131501
0.237780 0.229441 0.125839
0.353705 0.232590 0.121115
0.470210 0.234581 0.118129
0.587500 0.235000 0.117500
0.705000 0.235000 0.117500
0.822500 0.235000 0.117500
0.940000 0.235000 0.117500
0.004667 0.343166 0.131501
0.120280 0.346941 0.125839
0.236205 0.350090 0.121115
0.352710 0.352081 0.118129
0.470000 0.352500 0.117500
0.587500 0.352500 0.117500
0.705000 0.352500 0.117500
0.822500 0.352500 0.117500
0.940000 0.352500 0.117500
0.002780 0.464441 0.125839
0.118705 0.467590 0.121115
0.235210 0.469581 0.118129
0.352500 0.470000 0.117500
0.470000 0.470000 0.117500
0.587500 0.470000 0.117500
0.705000 0.470000 0.117500
0.822500 0.470000 0.117500
0.940000 0.470000 0.117500
0.001205 0.585090 0.121115
0.117710 0.587081 0.118129
0.235000 0.587500 0.117500
0.352500 0.587500 0.117500
0.470000 0.587500 0.117500
0.587500 0.587500 0.117500
0.705000 0.587500 0.117500
0.822500 0.587500 0.117500
0.940000 0.587500 0.117500
0.000210 0.704581 0.118129
0.117500 0.705000 0.117500
0.235000 0.705000 0.117500
0.352500 0.705000 0.117500
0.470000 0.705000 0.117500
0.587500 0.705000 0.117500
0.705000 0.705000 0.117500
0.822500 0.705000 0.117500
0.940000 0.705000 0.117500
0.000000 0.822500 0.117500
0.117500 0.822500 0.117500
0.235000 0.822500 0.117500
0.352500 0.822500 0.117500
0.470000 0.822500 0.117500
0.587500 0.822500 0.117500
0.705000 0.822500 0.117500
0.822500 0.822500 0.117500
0.940000 0.822500 0.117500
0.000000 0.940000 0.117500
0.117500 0.940000 0.117500
0.235000 0.940000 0.117500
0.352500 0.940000 0.117500
0.470000 0.940000 0.117500
0.587500 0.940000 0.117500
0.705000 0.940000 0.117500
0.822500 0.940000 0.117500
0.940000 0.940000 0.117500
0.008311 0.000000 0.259932
0.124100 0.000000 0.254799
0.239667 0.000000 0.249001
0.355280 0.000000 0.243339
0.471205 0.000000 0.238615
0.587710 0.000000 0.235629
0.705000 0.000000 0.235000
0.822500 0.000000 0.235000
0.940000 0.000000 0.235000
0.006600 0.104301 0.254799
0.122167 0.108166 0.249001
0.237780 0.111941 0.243339
0.353705 0.115090 0.238615
0.470210 0.117081 0.235629
0.587500 0.117500 0.235000
0.705000 0.117500 0.235000
0.822500 0.117500 0.235000
0.940000 0.117500 0.235000
0.004667 0.225666 0.249001
0.120280 0.229441 0.243339
0.236205 0.232590 0.238615
0.352710 0.234581 0.235629
0.470000 0.235000 0.235000
0.587500 0.235000 0.235000
0.705000 0.235000 0.235000
0.822500 0.235000 0.235000
0.940000 0.235000 0.235000
0.002780 0.346941 0.243339
0.118705 0.350090 0.238615
0.235210 0.352081 0.235629
0.352500 0.352500 0.235000
0.470000 0.352500 0.235000
0.587500 0.352500 0.235000
0.705000 0.352500 0.235000
0.822500 0.352500 0.235000
0.940000 0.352500 0.235000
0.001205 0.467590 0.238615
0.117710 0.469581 0.235629
0.235000 0.470000 0.235000
0.352500 0.470000 0.235000
0.470000 0.470000 0.235000
0.587500 0.470000 0.235000
0.705000 0.470000 0.235000
0.822500 0.470000 0.235000
0.940000 0.470000 0.235000
0.000210 0.587081 0.235629
0.117500 0.587500 0.235000
0.235000 0.587500 0.235000
0.352500 0.587500 0.235000
0.470000 0.587500 0.235000
0.587500 0.587500 0.235000
0.705000 0.587500 0.235000
0.822500 0.587500 0.235000
0.940000 0.587500 0.235000
0.000000 0.705000 0.235000
0.117500 0.705000 0.235000
0.235000 0.705000 0.235000
0.352500 0.705000 0.235000
0.470000 0.705000 0.235000
0.587500 0.705000 0.235000
0.705000 0.705000 0.235000
0.822500 0.705000 0.235000
0.940000 0.705000 0.235000
0.000000 0.822500 0.235000
0.117500 0.822500 0.235000
0.235000 0.822500 0.235000
0.352500 0.822500 0.235000
0.470000 0.822500 0.235000
0.587500 0.822500 0.235000
0.705000 0.822500 0.235000
0.822500 0.822500 0.235000
0.940000 0.822500 0.235000
0.000000 0.940000 0.235000
0.117500 0.940000 0.235000
0.235000 0.940000 0.235000
0.352500 0.940000 0.235000
0.470000 0.940000 0.235000
0.587500 0.940000 0.235000
0.705000 0.940000 0.235000
0.822500 0.940000 0.235000
0.940041 0.940025 0.234984
0.006600 0.000000 0.372299
0.122167 0.000000 0.366501
0.237780 0.000000 0.360839
0.353705 0.000000 0.356115
0.470210 0.000000 0.353129
0.587500 0.000000 0.352500
0.705000 0.000000 0.352500
0.822500 0.000000 0.352500
0.940000 0.000000 0.352500
0.004667 0.108166 0.366501
0.120280 0.111941 0.360839
0.236205 0.115090 0.356115
0.352710 0.117081 0.353129
0.470000 0.117500 0.352500
0.587500 0.117500 0.352500
0.705000 0.117500 0.352500
0.822500 0.117500 0.352500
0.940000 0.117500 0.352500
0.002780 0.229441 0.360839
0.118705 0.232590 0.356115
0.235210 0.234581 0.353129
0.352500 0.235000 0.352500
0.470000 0.235000 0.352500
0.587500 0.235000 0.352500
0.705000 0.235000 0.352500
0.822500 0.235000 0.352500
0.940000 0.235000 0.352500
0.001205 0.350090 0.356115
0.117710 0.352081 0.353129
0.235000 0.352500 0.352500
0.352500 0.352500 0.352500
0.470000 0.352500 0.352500
0.587500 0.352500 0.352500
0.705000 0.352500 0.352500
0.822500 0.352500 0.352500
0.940000 0.352500 0.352500
0.000210 0.469581 0.353129
0.117500 0.470000 0.352500
0.235000 0.470000 0.352500
0.352500 0.470000 0.352500
0.470000 0.470000 0.352500
0.587500 0.470000 0.352500
0.705000 0.470000 0.352500
0.822500 0.470000 0.352500
0.940000 0.470000 0.352500
0.000000 0.587500 0.352500
0.117500 0.587500 0.352500
0.235000 0.587500 0.352500
0.352500 0.587500 0.352500
0.470000 0.587500 0.352500
0.587500 0.587500 0.352500
0.705000 0.587500 0.352500
0.822500 0.587500 0.352500
0.940000 0.587500 0.352500
0.000000 0.705000 0.352500
0.117500 0.705000 0.352500
0.235000 0.705000 0.352500
0.352500 0.705000 0.352500
0.470000 0.705000 0.352500
0.587500 0.705000 0.352500
0.705000 0.705000 0.352500
0.822500 0.705000 0.352500
0.940000 0.705000 0.352500
0.000000 0.822500 0.352500
0.117500 0.822500 0.352500
0.235000 0.822500 0.352500
0.352500 0.822500 0.352500
0.470000 0.822500 0.352500
0.587500 0.822500 0.352500
0.705000 0.822500 0.352500
0.822500 0.822500 0.352500
0.940041 0.822525 0.352484
0.000000 0.940000 0.352500
0.117500 0.940000 0.352500
0.235000 0.940000 0.352500
0.352500 0.940000 0.352500
0.470000 0.940000 0.352500
0.587500 0.940000 0.352500
0.705000 0.940000 0.352500
0.822541 0.940025 0.352484
0.942932 0.941759 0.351327
0.004667 0.000000 0.484001
0.120280 0.000000 0.478339
0.236205 0.000000 0.473615
0.352710 0.000000 0.470629
0.470000 0.000000 0.470000
0.587500 0.000000 0.470000
0.705000 0.000000 0.470000
0.822500 0.000000 0.470000
0.940000 0.000000 0.470000
0.002780 0.111941 0.478339
0.118705 0.115090 0.473615
0.235210 0.117081 0.470629
0.352500 0.117500 0.470000
0.470000 0.117500 0.470000
0.587500 0.117500 0.470000
0.705000 0.117500 0.470000
0.822500 0.117500 0.470000
0.940000 0.117500 0.470000
0.001205 0.232590 0.473615
0.117710 0.234581 0.470629
0.235000 0.235000 0.470000
0.352500 0.235000 0.470000
0.470000 0.235000 0.470000
0.587500 0.235000 0.470000
0.705000 0.235000 0.470000
0.822500 0.235000 0.470000
0.940000 0.235000 0.470000
0.000210 0.352081 0.470629
0.117500 0.352500 0.470000
0.235000 0.352500 0.470000
0.352500 0.352500 0.470000
0.470000 0.352500 0.470000
0.587500 0.352500 0.470000
0.705000 0.352500 0.470000
0.822500 0.352500 0.470000
0.940000 0.352500 0.470000
0.000000 0.470000 0.470000
0.117500 0.470000 0.470000
0.235000 0.470000 0.470000
0.352500 0.470000 0.470000
0.470000 0.470000 0.470000
0.587500 0.470000 0.470000
0.705000 0.470000 0.470000
0.822500 0.470000 0.470000
0.940000 0.470000 0.470000
0.000000 0.587500 0.470000
0.117500 0.587500 0.470000
0.235000 0.587500 0.470000
0.352500 0.587500 0.470000
0.470000 0.587500 0.470000
0.587500 0.587500 0.470000
0.705000 0.587500 0.470000
0.822500 0.587500 0.470000
0.940000 0.587500 0.470000
0.000000 0.705000 0.470000
0.117500 0.705000 0.470000
0.235000 0.705000 0.470000
0.352500 0.705000 0.470000
0.470000 0.705000 0.470000
0.587500 0.705000 0.470000
0.705000 0.705000 0.470000
0.822500 0.705000 0.470000
0.940041 0.705025 0.469984
0.000000 0.822500 0.470000
0.117500 0.822500 0.470000
0.235000 0.822500 0.470000
0.352500 0.822500 0.470000
0.470000 0.822500 0.470000
0.587500 0.822500 0.470000
0.705000 0.822500 0.470000
0.822541 0.822525 0.469984
0.942932 0.824259 0.468827
0.000000 0.940000 0.470000
0.117500 0.940000 0.470000
0.235000 0.940000 0.470000
0.352500 0.940000 0.470000
0.470000 0.940000 0.470000
0.587500 0.940000 0.470000
0.705041 0.940025 0.469984
0.825432 0.941759 0.468827
0.949431 0.945658 0.466228
0.002780 0.000000 0.595839
0.118705 0.000000 0.591115
0.235210 0.000000 0.588129
0.352500 0.000000 0.587500
0.470000 0.000000 0.587500
0.587500 0.000000 0.587500
0.705000 0.000000 0.587500
0.822500 0.000000 0.587500
0.940000 0.000000 0.587500
0.001205 0.115090 0.591115
0.117710 0.117081 0.588129
0.235000 0.117500 0.587500
0.352500 0.117500 0.587500
0.470000 0.117500 0.587500
0.587500 0.117500 0.587500
0.705000 0.117500 0.587500
0.822500 0.117500 0.587500
0.940000 0.117500 0.587500
0.000210 0.234581 0.588129
0.117500 0.235000 0.587500
0.235000 0.235000 0.587500
0.352500 0.235000 0.587500
0.470000 0.235000 0.587500
0.587500 0.235000 0.587500
0.705000 0.235000 0.587500
0.822500 0.235000 0.587500
0.940000 0.235000 0.587500
0.000000 0.352500 0.587500
0.117500 0.352500 0.587500
0.235000 0.352500 0.587500
0.352500 0.352500 0.587500
0.470000 0.352500 0.587500
0.587500 0.352500 0.587500
0.705000 0.352500 0.587500
0.822500 0.352500 0.587500
0.940000 0.352500 0.587500
0.000000 0.470000 0.587500
0.117500 0.470000 0.587500
0.235000 0.470000 0.587500
0.352500 0.470000 0.587500
0.470000 0.470000 0.587500
0.587500 0.470000 0.587500
0.705000 0.470000 0.587500
0.822500 0.470000 0.587500
0.940000 0.470000 0.587500
0.000000 0.587500 0.587500
0.117500 0.587500 0.587500
0.235000 0.587500 0.587500
0.352500 0.587500 0.587500
0.470000 0.587500 0.587500
0.587500 0.587500 0.587500
0.705000 0.587500 0.587500
0.822500 0.587500 0.587500
0.940041 0.587525 0.587484
0.000000 0.705000 0.587500
0.117500 0.705000 0.587500
0.235000 0.705000 0.587500
0.352500 0.705000 0.587500
0.470000 0.705000 0.587500
0.587500 0.705000 0.587500
0.705000 0.705000 0.587500
0.822541 0.705025 0.587484
0.942932 0.706759 0.586327
0.000000 0.822500 0.587500
0.117500 0.822500 0.587500
0.235000 0.822500 0.587500
0.352500 0.822500 0.587500
0.470000 0.822500 0.587500
0.587500 0.822500 0.587500
0.705041 0.822525 0.587484
0.825432 0.824259 0.586327
0.949431 0.828158 0.583728
0.000000 0.940000 0.587500
0.117500 0.940000 0.587500
0.235000 0.940000 0.587500
0.352500 0.940000 0.587500
0.470000 0.940000 0.587500
0.587541 0.940025 0.587484
0.707932 0.941759 0.586327
0.831931 0.945658 0.583728
0.958202 0.950921 0.580219
0.001205 0.000000 0.708615
0.117710 0.000000 0.705629
0.235000 0.000000 0.705000
0.352500 0.000000 0.705000
0.470000 0.000000 0.705000
0.587500 0.000000 0.705000
0.705000 0.000000 0.705000
0.822500 0.000000 0.705000
0.940000 0.000000 0.705000
0.000210 0.117081 0.705629
0.117500 0.117500 0.705000
0.235000 0.117500 0.705000
0.352500 0.117500 0.705000
0.470000 0.117500 0.705000
0.587500 0.117500 0.705000
0.705000 0.117500 0.705000
0.822500 0.117500 0.705000
0.940000 0.117500 0.705000
0.000000 0.235000 0.705000
0.117500 0.235000 0.705000
0.235000 0.235000 0.705000
0.352500 0.235000 0.705000
0.470000 0.235000 0.705000
0.587500 0.235000 0.705000
0.705000 0.235000 0.705000
0.822500 0.235000 0.705000
0.940000 0.235000 0.705000
0.000000 0.352500 0.705000
0.117500 0.352500 0.705000
0.235000 0.352500 0.705000
0.352500 0.352500 0.705000
0.470000 0.352500 0.705000
0.587500 0.352500 0.705000
0.705000 0.352500 0.705000
0.822500 0.352500 0.705000
0.940000 0.352500 0.705000
0.000000 0.470000 0.705000
0.117500 0.470000 0.705000
0.235000 0.470000 0.705000
0.352500 0.470000 0.705000
0.470000 0.470000 0.705000
0.587500 0.470000 0.705000
0.705000 0.470000 0.705000
0.822500 0.470000 0.705000
0.940041 0.470025 0.704984
0.000000 0.587500 0.705000
0.117500 0.587500 0.705000
0.235000 0.587500 0.705000
0.352500 0.587500 0.705000
0.470000 0.587500 0.705000
0.587500 0.587500 0.705000
0.705000 0.587500 0.705000
0.822541 0.587525 0.704984
0.942932 0.589259 0.703827
0.000000 0.705000 0.705000
0.117500 0.705000 0.705000
0.235000 0.705000 0.705000
0.352500 0.705000 0.705000
0.470000 0.705000 0.705000
0.587500 0.705000 0.705000
0.705041 0.705025 0.704984
0.825432 0.706759 0.703827
0.949431 0.710658 0.701228
0.000000 0.822500 0.705000
0.117500 0.822500 0.705000
0.235000 0.822500 0.705000
0.352500 0.822500 0.705000
0.470000 0.822500 0.705000
0.587541 0.822525 0.704984
0.707932 0.824259 0.703827
0.831931 0.828158 0.701228
0.958202 0.833421 0.697719
0.000000 0.940000 0.705000
0.117500 0.940000 0.705000
0.235000 0.940000 0.705000
0.352500 0.940000 0.705000
0.470041 0.940025 0.704984
0.590432 0.941759 0.703827
0.714431 0.945658 0.701228
0.840702 0.950921 0.697719
0.967911 0.956746 0.693836
0.000210 0.000000 0.823129
0.117500 0.000000 0.822500
0.235000 0.000000 0.822500
0.352500 0.000000 0.822500
0.470000 0.000000 0.822500
0.587500 0.000000 0.822500
0.705000 0.000000 0.822500
0.822500 0.000000 0.822500
0.940000 0.000000 0.822500
0.000000 0.117500 0.822500
0.117500 0.117500 0.822500
0.235000 0.117500 0.822500
0.352500 0.117500 0.822500
0.470000 0.117500 0.822500
0.587500 0.117500 0.822500
0.705000 0.117500 0.822500
0.822500 0.117500 0.822500
0.940000 0.117500 0.822500
0.000000 0.235000 0.822500
0.117500 0.235000 0.822500
0.235000 0.235000 0.822500
0.352500 0.235000 0.822500
0.470000 0.235000 0.822500
0.587500 0.235000 0.822500
0.705000 0.235000 0.822500
0.822500 0.235000 0.822500
0.940000 0.235000 0.822500
0.000000 0.352500 0.822500
0.117500 0.352500 0.822500
0.235000 0.352500 0.822500
0.352500 0.352500 0.822500
0.470000 0.352500 0.822500
0.587500 0.352500 0.822500
0.705000 0.352500 0.822500
0.822500 0.352500 0.822500
0.940041 0.352525 0.822484
0.000000 0.470000 0.822500
0.117500 0.470000 0.822500
0.235000 0.470000 0.822500
0.352500 0.470000 0.822500
0.470000 0.470000 0.822500
0.587500 0.470000 0.822500
0.705000 0.470000 0.822500
0.822541 0.470025 0.822484
0.942932 0.471759 0.821327
0.000000 0.587500 0.822500
0.117500 0.587500 0.822500
0.235000 0.587500 0.822500
0.352500 0.587500 0.822500
0.470000 0.587500 0.822500
0.587500 0.587500 0.822500
0.705041 0.587525 0.822484
0.825432 0.589259 0.821327
0.949431 0.593158 0.818728
0.000000 0.705000 0.822500
0.117500 0.705000 0.822500
0.235000 0.705000 0.822500
0.352500 0.705000 0.822500
0.470000 0.705000 0.822500
0.587541 0.705025 0.822484
0.707932 0.706759 0.821327
0.831931 0.710658 0.818728
0.958202 0.715921 0.815219
0.000000 0.822500 0.822500
0.117500 0.822500 0.822500
0.235000 0.822500 0.822500
0.352500 0.822500 0.822500
0.470041 0.822525 0.822484
0.590432 0.824259 0.821327
0.714431 0.828158 0.818728
0.840702 0.833421 0.815219
0.967911 0.839246 0.811336
0.000000 0.940000 0.822500
0.117500 0.940000 0.822500
0.235000 0.940000 0.822500
0.352541 0.940025 0.822484
0.472932 0.941759 0.821327
0.596931 0.945658 0.818728
0.723202 0.950921 0.815219
0.850411 0.956746 0.811336
0.977222 0.962333 0.807611
0.000000 0.000000 0.940000
0.117500 0.000000 0.940000
0.235000 0.000000 0.940000
0.352500 0.000000 0.940000
0.470000 0.000000 0.940000
0.587500 0.000000 0.940000
0.705000 0.000000 0.940000
0.822500 0.000000 0.940000
0.940000 0.000000 0.940000
0.000000 0.117500 0.940000
0.117500 0.117500 0.940000
0.235000 0.117500 0.940000
0.352500 0.117500 0.940000
0.470000 0.117500 0.940000
0.587500 0.117500 0.940000
0.705000 0.117500 0.940000
0.822500 0.117500 0.940000
0.940000 0.117500 0.940000
0.000000 0.235000 0.940000
0.117500 0.235000 0.940000
0.235000 0.235000 0.940000
0.352500 0.235000 0.940000
0.470000 0.235000 0.940000
0.587500 0.235000 0.940000
0.705000 0.235000 0.940000
0.822500 0.235000 0.940000
0.940041 0.235025 0.939984
0.000000 0.352500 0.940000
0.117500 0.352500 0.940000
0.235000 0.352500 0.940000
0.352500 0.352500 0.940000
0.470000 0.352500 0.940000
0.587500 0.352500 0.940000
0.705000 0.352500 0.940000
0.822541 0.352525 0.939984
0.942932 0.354259 0.938827
0.000000 0.470000 0.940000
0.117500 0.470000 0.940000
0.235000 0.470000 0.940000
0.352500 0.470000 0.940000
0.470000 0.470000 0.940000
0.587500 0.470000 0.940000
0.705041 0.470025 0.939984
0.825432 0.471759 0.938827
0.949431 0.475658 0.936228
0.000000 0.587500 0.940000
0.117500 0.587500 0.940000
0.235000 0.587500 0.940000
0.352500 0.587500 0.940000
0.470000 0.587500 0.940000
0.587541 0.587525 0.939984
0.707932 0.589259 0.938827
0.831931 0.593158 0.936228
0.958202 0.598421 0.932719
0.000000 0.705000 0.940000
0.117500 0.705000 0.940000
0.235000 0.705000 0.940000
0.352500 0.705000 0.940000
0.470041 0.705025 0.939984
0.590432 0.706759 0.938827
0.714431 0.710658 0.936228
0.840702 0.715921 0.932719
0.967911 0.721746 0.928836
0.000000 0.822500 0.940000
0.117500 0.822500 0.940000
0.235000 0.822500 0.940000
0.352541 0.822525 0.939984
0.472932 0.824259 0.938827
0.596931 0.828158 0.936228
0.723202 0.833421 0.932719
0.850411 0.839246 0.928836
0.977222 0.844833 0.925111
0.000000 0.940000 0.940000
0.117500 0.940000 0.940000
0.235041 0.940025 0.939984
0.355432 0.941759 0.938827
0.479431 0.945658 0.936228
0.605702 0.950921 0.932719
0.732911 0.956746 0.928836
0.859722 0.962333 0.925111
0.984800 0.966880 0.922080
