Examples/LUT/Classic_Cinema_Custom.cube
TITLE "Classic Cinema - Custom Generated"
LUT_3D_SIZE 5
0.010000 0.000000 0.030000
0.243311 0.000000 0.024932
0.474667 0.000000 0.014001
0.706205 0.000000 0.003615
0.940000 0.000000 0.000000
0.008311 0.218379 0.024932
0.239667 0.225666 0.014001
0.471205 0.232590 0.003615
0.705000 0.235000 0.000000
0.940000 0.235000 0.000000
0.004667 0.460666 0.014001
0.236205 0.467590 0.003615
0.470000 0.470000 0.000000
0.705000 0.470000 0.000000
0.940000 0.470000 0.000000
0.001205 0.702590 0.003615
0.235000 0.705000 0.000000
0.470000 0.705000 0.000000
0.705000 0.705000 0.000000
0.940000 0.705000 0.000000
0.000000 0.940000 0.000000
0.235000 0.940000 0.000000
0.470000 0.940000 0.000000
0.705000 0.940000 0.000000
0.940000 0.940000 0.000000
0.008311 0.000000 0.259932
0.239667 0.000000 0.249001
0.471205 0.000000 0.238615
0.705000 0.000000 0.235000
0.940000 0.000000 0.235000
0.004667 0.225666 0.249001
0.236205 0.232590 0.238615
0.470000 0.235000 0.235000
0.705000 0.235000 0.235000
0.940000 0.235000 0.235000
0.001205 0.467590 0.238615
0.235000 0.470000 0.235000
0.470000 0.470000 0.235000
0.705000 0.470000 0.235000
0.940000 0.470000 0.235000
0.000000 0.705000 0.235000
0.235000 0.705000 0.235000
0.470000 0.705000 0.235000
0.705000 0.705000 0.235000
0.940000 0.705000 0.235000
0.000000 0.940000 0.235000
0.235000 0.940000 0.235000
0.470000 0.940000 0.235000
0.705000 0.940000 0.235000
0.940041 0.940025 0.234984
0.004667 0.000000 0.484001
0.236205 0.000000 0.473615
0.470000 0.000000 0.470000
0.705000 0.000000 0.470000
0.940000 0.000000 0.470000
0.001205 0.232590 0.473615
0.235000 0.235000 0.470000
0.470000 0.235000 0.470000
0.705000 0.235000 0.470000
0.940000 0.235000 0.470000
0.000000 0.470000 0.470000
0.235000 0.470000 0.470000
0.470000 0.470000 0.470000
0.705000 0.470000 0.470000
0.940000 0.470000 0.470000
0.000000 0.705000 0.470000
0.235000 0.705000 0.470000
0.470000 0.705000 0.470000
0.705000 0.705000 0.470000
0.940041 0.705025 0.469984
0.000000 0.940000 0.470000
0.235000 0.940000 0.470000
0.470000 0.940000 0.470000
0.705041 0.940025 0.469984
0.949431 0.945658 0.466228
0.001205 0.000000 0.708615
0.235000 0.000000 0.705000
0.470000 0.000000 0.705000
0.705000 0.000000 0.705000
0.940000 0.000000 0.705000
0.000000 0.235000 0.705000
0.235000 0.235000 0.705000
0.470000 0.235000 0.705000
0.705000 0.235000 0.705000
0.940000 0.235000 0.705000
0.000000 0.470000 0.705000
0.235000 0.470000 0.705000
0.470000 0.470000 0.705000
0.705000 0.470000 0.705000
0.940041 0.470025 0.704984
0.000000 0.705000 0.705000
0.235000 0.705000 0.705000
0.470000 0.705000 0.705000
0.705041 0.705025 0.704984
0.949431 0.710658 0.701228
0.000000 0.940000 0.705000
0.235000 0.940000 0.705000
0.470041 0.940025 0.704984
0.714431 0.945658 0.701228
0.967911 0.956746 0.693836
0.000000 0.000000 0.940000
0.235000 0.000000 0.940000
0.470000 0.000000 0.940000
0.705000 0.000000 0.940000
0.940000 0.000000 0.940000
0.000000 0.235000 0.940000
0.235000 0.235000 0.940000
0.470000 0.235000 0.940000
0.705000 0.235000 0.940000
0.940041 0.235025 0.939984
0.000000 0.470000 0.940000
0.235000 0.470000 0.940000
0.470000 0.470000 0.940000
0.705041 0.470025 0.939984
0.949431 0.475658 0.936228
0.000000 0.705000 0.940000
0.235000 0.705000 0.940000
0.470041 0.705025 0.939984
0.714431 0.710658 0.936228
0.967911 0.721746 0.928836
0.000000 0.940000 0.940000
0.235041 0.940025 0.939984
0.479431 0.945658 0.936228
0.732911 0.956746 0.928836
0.984800 0.966880 0.922080
