Examples/LUT/Teal_Orange_Custom.cube
TITLE "Teal & Orange - Custom Generated"
LUT_3D_SIZE 33
0.027902 0.040705 0.045606
0.054435 0.040827 0.045648
0.080948 0.040885 0.045603
0.107440 0.040883 0.045480
0.133915 0.040828 0.045284
0.160373 0.040723 0.045023
0.186817 0.040575 0.044704
0.213247 0.040387 0.044332
0.239666 0.040166 0.043916
0.266076 0.039916 0.043461
0.292478 0.039642 0.042974
0.318873 0.039349 0.042462
0.345264 0.039043 0.041932
0.371652 0.038728 0.041390
0.398039 0.038409 0.040844
0.424426 0.038092 0.040299
0.450816 0.037781 0.039763
0.477209 0.037482 0.039243
0.503608 0.037199 0.038745
0.530014 0.036938 0.038275
0.556429 0.036704 0.037841
0.582855 0.036501 0.037449
0.609292 0.036335 0.037107
0.635744 0.036211 0.036820
0.662211 0.036134 0.036596
0.688696 0.036109 0.036441
0.715200 0.036141 0.036361
0.741724 0.036235 0.036365
0.768271 0.036396 0.036458
0.794841 0.036629 0.036647
0.821438 0.036939 0.036939
0.848052 0.037302 0.037302
0.874667 0.037667 0.037667
0.027092 0.068171 0.045648
0.053604 0.068228 0.045603
0.080096 0.068227 0.045480
0.106571 0.068171 0.045284
0.133029 0.068067 0.045023
0.159473 0.067918 0.044704
0.185903 0.067731 0.044332
0.212323 0.067510 0.043916
0.238732 0.067260 0.043461
0.265134 0.066986 0.042974
0.291530 0.066693 0.042462
0.317920 0.066386 0.041932
0.344308 0.066071 0.041390
0.370695 0.065753 0.040844
0.397083 0.065435 0.040299
0.423472 0.065125 0.039763
0.449865 0.064825 0.039243
0.476264 0.064543 0.038745
0.502670 0.064282 0.038275
0.529085 0.064047 0.037841
0.555511 0.063845 0.037449
0.581949 0.063679 0.037107
0.608400 0.063555 0.036820
0.634868 0.063478 0.036596
0.661352 0.063453 0.036441
0.687856 0.063485 0.036361
0.714380 0.063578 0.036365
0.740927 0.063739 0.036458
0.767498 0.063972 0.036647
0.794094 0.064282 0.036939
0.820708 0.064646 0.037302
0.847323 0.065010 0.037667
0.873938 0.065375 0.038031
0.026260 0.095572 0.045603
0.052753 0.095571 0.045480
0.079227 0.095515 0.045284
0.105686 0.095411 0.045023
0.132129 0.095262 0.044704
0.158560 0.095075 0.044332
0.184979 0.094853 0.043916
0.211389 0.094603 0.043461
0.237790 0.094329 0.042974
0.264186 0.094037 0.042462
0.290577 0.093730 0.041932
0.316965 0.093415 0.041390
0.343352 0.093096 0.040844
0.369739 0.092779 0.040299
0.396128 0.092468 0.039763
0.422522 0.092169 0.039243
0.448921 0.091887 0.038745
0.475327 0.091626 0.038275
0.501742 0.091391 0.037841
0.528167 0.091189 0.037449
0.554605 0.091023 0.037107
0.581057 0.090899 0.036820
0.607524 0.090822 0.036596
0.634009 0.090797 0.036441
0.660512 0.090828 0.036361
0.687037 0.090922 0.036365
0.713583 0.091083 0.036458
0.740154 0.091316 0.036647
0.766750 0.091626 0.036939
0.793365 0.091990 0.037302
0.819979 0.092354 0.037667
0.846594 0.092719 0.038031
0.873208 0.093083 0.038396
0.025409 0.122914 0.045480
0.051884 0.122859 0.045284
0.078342 0.122754 0.045023
0.104785 0.122606 0.044704
0.131216 0.122419 0.044332
0.157635 0.122197 0.043916
0.184045 0.121947 0.043461
0.210447 0.121673 0.042974
0.236842 0.121380 0.042462
0.263233 0.121074 0.041932
0.289621 0.120759 0.041390
0.316008 0.120440 0.040844
0.342395 0.120123 0.040299
0.368785 0.119812 0.039763
0.395178 0.119513 0.039243
0.421577 0.119230 0.038745
0.447983 0.118969 0.038275
0.474398 0.118735 0.037841
0.500823 0.118532 0.037449
0.527261 0.118367 0.037107
0.553713 0.118243 0.036820
0.580180 0.118166 0.036596
0.606665 0.118140 0.036441
0.633168 0.118172 0.036361
0.659693 0.118266 0.036365
0.686239 0.118427 0.036458
0.712810 0.118660 0.036647
0.739407 0.118970 0.036939
0.766021 0.119333 0.037302
0.792635 0.119698 0.037667
0.819250 0.120062 0.038031
0.845865 0.120427 0.038396
0.872479 0.120792 0.038760
0.024540 0.150203 0.045284
0.050998 0.150098 0.045023
0.077442 0.149950 0.044704
0.103872 0.149762 0.044332
0.130291 0.149541 0.043916
0.156701 0.149291 0.043461
0.183103 0.149017 0.042974
0.209498 0.148724 0.042462
0.235889 0.148418 0.041932
0.262277 0.148103 0.041390
0.288664 0.147784 0.040844
0.315051 0.147467 0.040299
0.341441 0.147156 0.039763
0.367834 0.146857 0.039243
0.394233 0.146574 0.038745
0.420639 0.146313 0.038275
0.447054 0.146079 0.037841
0.473480 0.145876 0.037449
0.499917 0.145710 0.037107
0.526369 0.145586 0.036820
0.552836 0.145509 0.036596
0.579321 0.145484 0.036441
0.605825 0.145516 0.036361
0.632349 0.145610 0.036365
0.658896 0.145771 0.036458
0.685466 0.146004 0.036647
0.712063 0.146314 0.036939
0.738677 0.146677 0.037302
0.765292 0.147042 0.037667
0.791906 0.147406 0.038031
0.818521 0.147771 0.038396
0.845135 0.148135 0.038760
0.871750 0.148500 0.039125
0.023654 0.177442 0.045023
0.050098 0.177293 0.044704
0.076528 0.177106 0.044332
0.102948 0.176885 0.043916
0.129357 0.176635 0.043461
0.155759 0.176361 0.042974
0.182155 0.176068 0.042462
0.208545 0.175761 0.041932
0.234933 0.175446 0.041390
0.261320 0.175128 0.040844
0.287708 0.174810 0.040299
0.314097 0.174500 0.039763
0.340490 0.174200 0.039243
0.366889 0.173918 0.038745
0.393295 0.173657 0.038275
0.419710 0.173422 0.037841
0.446136 0.173220 0.037449
0.472574 0.173054 0.037107
0.499025 0.172930 0.036820
0.525493 0.172853 0.036596
0.551977 0.172828 0.036441
0.578481 0.172860 0.036361
0.605005 0.172953 0.036365
0.631552 0.173114 0.036458
0.658123 0.173347 0.036647
0.684719 0.173657 0.036939
0.711333 0.174021 0.037302
0.737948 0.174385 0.037667
0.764563 0.174750 0.038031
0.791177 0.175115 0.038396
0.817792 0.175479 0.038760
0.844406 0.175844 0.039125
0.871021 0.176208 0.039490
0.022754 0.204637 0.044704
0.049185 0.204450 0.044332
0.075604 0.204228 0.043916
0.102014 0.203978 0.043461
0.128415 0.203704 0.042974
0.154811 0.203412 0.042462
0.181202 0.203105 0.041932
0.207590 0.202790 0.041390
0.233977 0.202471 0.040844
0.260364 0.202154 0.040299
0.286753 0.201843 0.039763
0.313147 0.201544 0.039243
0.339546 0.201262 0.038745
0.365952 0.201001 0.038275
0.392367 0.200766 0.037841
0.418792 0.200564 0.037449
0.445230 0.200398 0.037107
0.471682 0.200274 0.036820
0.498149 0.200197 0.036596
0.524634 0.200172 0.036441
0.551137 0.200203 0.036361
0.577662 0.200297 0.036365
0.604208 0.200458 0.036458
0.630779 0.200691 0.036647
0.657375 0.201001 0.036939
0.683990 0.201365 0.037302
0.710604 0.201729 0.037667
0.737219 0.202094 0.038031
0.763833 0.202458 0.038396
0.790448 0.202823 0.038760
0.817063 0.203187 0.039125
0.843677 0.203552 0.039490
0.870292 0.203917 0.039854
0.021841 0.231794 0.044332
0.048260 0.231572 0.043916
0.074670 0.231322 0.043461
0.101072 0.231048 0.042974
0.127467 0.230755 0.042462
0.153858 0.230449 0.041932
0.180246 0.230134 0.041390
0.206633 0.229815 0.040844
0.233020 0.229498 0.040299
0.259410 0.229187 0.039763
0.285803 0.228888 0.039243
0.312202 0.228605 0.038745
0.338608 0.228344 0.038275
0.365023 0.228110 0.037841
0.391448 0.227907 0.037449
0.417886 0.227742 0.037107
0.444338 0.227618 0.036820
0.470805 0.227541 0.036596
0.497290 0.227515 0.036441
0.523793 0.227547 0.036361
0.550318 0.227641 0.036365
0.576864 0.227802 0.036458
0.603435 0.228035 0.036647
0.630032 0.228345 0.036939
0.656646 0.228708 0.037302
0.683260 0.229073 0.037667
0.709875 0.229437 0.038031
0.736490 0.229802 0.038396
0.763104 0.230167 0.038760
0.789719 0.230531 0.039125
0.816333 0.230896 0.039490
0.842948 0.231260 0.039854
0.869563 0.231625 0.040219
0.020916 0.258916 0.043916
0.047326 0.258666 0.043461
0.073728 0.258392 0.042974
0.100123 0.258099 0.042462
0.126514 0.257793 0.041932
0.152902 0.257478 0.041390
0.179289 0.257159 0.040844
0.205676 0.256842 0.040299
0.232066 0.256531 0.039763
0.258459 0.256232 0.039243
0.284858 0.255949 0.038745
0.311264 0.255688 0.038275
0.337679 0.255454 0.037841
0.364105 0.255251 0.037449
0.390542 0.255085 0.037107
0.416994 0.254961 0.036820
0.443461 0.254884 0.036596
0.469946 0.254859 0.036441
0.496450 0.254891 0.036361
0.522974 0.254985 0.036365
0.549521 0.255146 0.036458
0.576091 0.255379 0.036647
0.602688 0.255689 0.036939
0.629302 0.256052 0.037302
0.655917 0.256417 0.037667
0.682531 0.256781 0.038031
0.709146 0.257146 0.038396
0.735760 0.257510 0.038760
0.762375 0.257875 0.039125
0.788990 0.258240 0.039490
0.815604 0.258604 0.039854
0.842219 0.258969 0.040219
0.868833 0.259333 0.040583
0.019982 0.286010 0.043461
0.046384 0.285736 0.042974
0.072780 0.285443 0.042462
0.099170 0.285136 0.041932
0.125558 0.284821 0.041390
0.151945 0.284503 0.040844
0.178333 0.284185 0.040299
0.204722 0.283875 0.039763
0.231115 0.283575 0.039243
0.257514 0.283293 0.038745
0.283920 0.283032 0.038275
0.310335 0.282797 0.037841
0.336761 0.282595 0.037449
0.363199 0.282429 0.037107
0.389650 0.282305 0.036820
0.416118 0.282228 0.036596
0.442602 0.282203 0.036441
0.469106 0.282235 0.036361
0.495630 0.282328 0.036365
0.522177 0.282489 0.036458
0.548748 0.282722 0.036647
0.575344 0.283032 0.036939
0.601958 0.283396 0.037302
0.628573 0.283760 0.037667
0.655188 0.284125 0.038031
0.681802 0.284490 0.038396
0.708417 0.284854 0.038760
0.735031 0.285219 0.039125
0.761646 0.285583 0.039490
0.788260 0.285948 0.039854
0.814875 0.286313 0.040219
0.841490 0.286677 0.040583
0.868104 0.287042 0.040948
0.019040 0.313079 0.042974
0.045436 0.312787 0.042462
0.071827 0.312480 0.041932
0.098215 0.312165 0.041390
0.124602 0.311846 0.040844
0.150989 0.311529 0.040299
0.177378 0.311218 0.039763
0.203772 0.310919 0.039243
0.230171 0.310637 0.038745
0.256577 0.310376 0.038275
0.282992 0.310141 0.037841
0.309417 0.309939 0.037449
0.335855 0.309773 0.037107
0.362307 0.309649 0.036820
0.388774 0.309572 0.036596
0.415259 0.309547 0.036441
0.441762 0.309578 0.036361
0.468287 0.309672 0.036365
0.494833 0.309833 0.036458
0.521404 0.310066 0.036647
0.548000 0.310376 0.036939
0.574615 0.310740 0.037302
0.601229 0.311104 0.037667
0.627844 0.311469 0.038031
0.654458 0.311833 0.038396
0.681073 0.312198 0.038760
0.707688 0.312563 0.039125
0.734302 0.312927 0.039490
0.760917 0.313292 0.039854
0.787531 0.313656 0.040219
0.814146 0.314021 0.040583
0.840760 0.314385 0.040948
0.867375 0.314750 0.041313
0.018092 0.340130 0.042462
0.044483 0.339824 0.041932
0.070871 0.339509 0.041390
0.097258 0.339190 0.040844
0.123645 0.338873 0.040299
0.150035 0.338562 0.039763
0.176428 0.338263 0.039243
0.202827 0.337980 0.038745
0.229233 0.337719 0.038275
0.255648 0.337485 0.037841
0.282073 0.337282 0.037449
0.308511 0.337117 0.037107
0.334963 0.336993 0.036820
0.361430 0.336916 0.036596
0.387915 0.336890 0.036441
0.414418 0.336922 0.036361
0.440943 0.337016 0.036365
0.467489 0.337177 0.036458
0.494060 0.337410 0.036647
0.520657 0.337720 0.036939
0.547271 0.338083 0.037302
0.573885 0.338448 0.037667
0.600500 0.338813 0.038031
0.627115 0.339177 0.038396
0.653729 0.339542 0.038760
0.680344 0.339906 0.039125
0.706958 0.340271 0.039490
0.733573 0.340635 0.039854
0.760188 0.341000 0.040219
0.786802 0.341365 0.040583
0.813417 0.341729 0.040948
0.840031 0.342094 0.041313
0.866646 0.342458 0.041677
0.017139 0.367168 0.041932
0.043527 0.366853 0.041390
0.069914 0.366534 0.040844
0.096301 0.366217 0.040299
0.122691 0.365906 0.039763
0.149084 0.365607 0.039243
0.175483 0.365324 0.038745
0.201889 0.365063 0.038275
0.228304 0.364829 0.037841
0.254730 0.364626 0.037449
0.281167 0.364460 0.037107
0.307619 0.364336 0.036820
0.334086 0.364259 0.036596
0.360571 0.364234 0.036441
0.387075 0.364266 0.036361
0.413599 0.364360 0.036365
0.440146 0.364521 0.036458
0.466716 0.364754 0.036647
0.493313 0.365064 0.036939
0.519927 0.365427 0.037302
0.546542 0.365792 0.037667
0.573156 0.366156 0.038031
0.599771 0.366521 0.038396
0.626385 0.366885 0.038760
0.653000 0.367250 0.039125
0.679615 0.367615 0.039490
0.706229 0.367979 0.039854
0.732844 0.368344 0.040219
0.759458 0.368708 0.040583
0.786073 0.369073 0.040948
0.812688 0.369438 0.041313
0.839302 0.369802 0.041677
0.865917 0.370167 0.042042
0.016183 0.394196 0.041390
0.042570 0.393878 0.040844
0.068958 0.393560 0.040299
0.095347 0.393250 0.039763
0.121740 0.392950 0.039243
0.148139 0.392668 0.038745
0.174545 0.392407 0.038275
0.200960 0.392172 0.037841
0.227386 0.391970 0.037449
0.253824 0.391804 0.037107
0.280275 0.391680 0.036820
0.306743 0.391603 0.036596
0.333227 0.391578 0.036441
0.359731 0.391610 0.036361
0.386255 0.391703 0.036365
0.412802 0.391864 0.036458
0.439373 0.392097 0.036647
0.465969 0.392407 0.036939
0.492583 0.392771 0.037302
0.519198 0.393135 0.037667
0.545813 0.393500 0.038031
0.572427 0.393865 0.038396
0.599042 0.394229 0.038760
0.625656 0.394594 0.039125
0.652271 0.394958 0.039490
0.678885 0.395323 0.039854
0.705500 0.395688 0.040219
0.732115 0.396052 0.040583
0.758729 0.396417 0.040948
0.785344 0.396781 0.041313
0.811958 0.397146 0.041677
0.838573 0.397510 0.042042
0.865187 0.397875 0.042406
0.015227 0.421221 0.040844
0.041614 0.420904 0.040299
0.068003 0.420593 0.039763
0.094397 0.420294 0.039243
0.120796 0.420012 0.038745
0.147202 0.419751 0.038275
0.173617 0.419516 0.037841
0.200042 0.419314 0.037449
0.226480 0.419148 0.037107
0.252932 0.419024 0.036820
0.279399 0.418947 0.036596
0.305884 0.418922 0.036441
0.332387 0.418953 0.036361
0.358912 0.419047 0.036365
0.385458 0.419208 0.036458
0.412029 0.419441 0.036647
0.438625 0.419751 0.036939
0.465240 0.420115 0.037302
0.491854 0.420479 0.037667
0.518469 0.420844 0.038031
0.545083 0.421208 0.038396
0.571698 0.421573 0.038760
0.598313 0.421938 0.039125
0.624927 0.422302 0.039490
0.651542 0.422667 0.039854
0.678156 0.423031 0.040219
0.704771 0.423396 0.040583
0.731385 0.423760 0.040948
0.758000 0.424125 0.041313
0.784615 0.424490 0.041677
0.811229 0.424854 0.042042
0.837844 0.425219 0.042406
0.864458 0.425583 0.042771
0.014270 0.448248 0.040299
0.040660 0.447937 0.039763
0.067053 0.447638 0.039243
0.093452 0.447355 0.038745
0.119858 0.447094 0.038275
0.146273 0.446860 0.037841
0.172698 0.446657 0.037449
0.199136 0.446492 0.037107
0.225588 0.446368 0.036820
0.252055 0.446291 0.036596
0.278540 0.446265 0.036441
0.305043 0.446297 0.036361
0.331568 0.446391 0.036365
0.358114 0.446552 0.036458
0.384685 0.446785 0.036647
0.411282 0.447095 0.036939
0.437896 0.447458 0.037302
0.464510 0.447823 0.037667
0.491125 0.448188 0.038031
0.517740 0.448552 0.038396
0.544354 0.448917 0.038760
0.570969 0.449281 0.039125
0.597583 0.449646 0.039490
0.624198 0.450010 0.039854
0.650813 0.450375 0.040219
0.677427 0.450740 0.040583
0.704042 0.451104 0.040948
0.730656 0.451469 0.041313
0.757271 0.451833 0.041677
0.783885 0.452198 0.042042
0.810500 0.452563 0.042406
0.837115 0.452927 0.042771
0.863729 0.453292 0.043135
0.013316 0.475281 0.039763
0.039709 0.474982 0.039243
0.066108 0.474699 0.038745
0.092514 0.474438 0.038275
0.118929 0.474204 0.037841
0.145355 0.474001 0.037449
0.171792 0.473835 0.037107
0.198244 0.473711 0.036820
0.224711 0.473634 0.036596
0.251196 0.473609 0.036441
0.277700 0.473641 0.036361
0.304224 0.473735 0.036365
0.330771 0.473896 0.036458
0.357341 0.474129 0.036647
0.383938 0.474439 0.036939
0.410552 0.474802 0.037302
0.437167 0.475167 0.037667
0.463781 0.475531 0.038031
0.490396 0.475896 0.038396
0.517010 0.476260 0.038760
0.543625 0.476625 0.039125
0.570240 0.476990 0.039490
0.596854 0.477354 0.039854
0.623469 0.477719 0.040219
0.650083 0.478083 0.040583
0.676698 0.478448 0.040948
0.703313 0.478813 0.041313
0.729927 0.479177 0.041677
0.756542 0.479542 0.042042
0.783156 0.479906 0.042406
0.809771 0.480271 0.042771
0.836385 0.480635 0.043135
0.863000 0.481000 0.043500
0.012365 0.502325 0.039243
0.038764 0.502043 0.038745
0.065170 0.501782 0.038275
0.091585 0.501547 0.037841
0.118011 0.501345 0.037449
0.144449 0.501179 0.037107
0.170900 0.501055 0.036820
0.197368 0.500978 0.036596
0.223852 0.500953 0.036441
0.250356 0.500985 0.036361
0.276880 0.501078 0.036365
0.303427 0.501239 0.036458
0.329998 0.501472 0.036647
0.356594 0.501782 0.036939
0.383208 0.502146 0.037302
0.409823 0.502510 0.037667
0.436438 0.502875 0.038031
0.463052 0.503240 0.038396
0.489667 0.503604 0.038760
0.516281 0.503969 0.039125
0.542896 0.504333 0.039490
0.569510 0.504698 0.039854
0.596125 0.505062 0.040219
0.622740 0.505427 0.040583
0.649354 0.505792 0.040948
0.675969 0.506156 0.041313
0.702583 0.506521 0.041677
0.729198 0.506885 0.042042
0.755812 0.507250 0.042406
0.782427 0.507615 0.042771
0.809042 0.507979 0.043135
0.835656 0.508344 0.043500
0.862271 0.508708 0.043865
0.011421 0.529387 0.038745
0.037827 0.529126 0.038275
0.064242 0.528891 0.037841
0.090667 0.528689 0.037449
0.117105 0.528523 0.037107
0.143557 0.528399 0.036820
0.170024 0.528322 0.036596
0.196509 0.528297 0.036441
0.223012 0.528328 0.036361
0.249537 0.528422 0.036365
0.276083 0.528583 0.036458
0.302654 0.528816 0.036647
0.329250 0.529126 0.036939
0.355865 0.529490 0.037302
0.382479 0.529854 0.037667
0.409094 0.530219 0.038031
0.435708 0.530583 0.038396
0.462323 0.530948 0.038760
0.488938 0.531313 0.039125
0.515552 0.531677 0.039490
0.542167 0.532042 0.039854
0.568781 0.532406 0.040219
0.595396 0.532771 0.040583
0.622010 0.533135 0.040948
0.648625 0.533500 0.041313
0.675240 0.533865 0.041677
0.701854 0.534229 0.042042
0.728469 0.534594 0.042406
0.755083 0.534958 0.042771
0.781698 0.535323 0.043135
0.808312 0.535687 0.043500
0.834927 0.536052 0.043865
0.861542 0.536417 0.044229
0.010483 0.556469 0.038275
0.036898 0.556235 0.037841
0.063323 0.556032 0.037449
0.089761 0.555867 0.037107
0.116213 0.555743 0.036820
0.142680 0.555666 0.036596
0.169165 0.555640 0.036441
0.195668 0.555672 0.036361
0.222193 0.555766 0.036365
0.248739 0.555927 0.036458
0.275310 0.556160 0.036647
0.301907 0.556470 0.036939
0.328521 0.556833 0.037302
0.355135 0.557198 0.037667
0.381750 0.557563 0.038031
0.408365 0.557927 0.038396
0.434979 0.558292 0.038760
0.461594 0.558656 0.039125
0.488208 0.559021 0.039490
0.514823 0.559385 0.039854
0.541438 0.559750 0.040219
0.568052 0.560115 0.040583
0.594667 0.560479 0.040948
0.621281 0.560844 0.041313
0.647896 0.561208 0.041677
0.674510 0.561573 0.042042
0.701125 0.561937 0.042406
0.727740 0.562302 0.042771
0.754354 0.562667 0.043135
0.780969 0.563031 0.043500
0.807583 0.563396 0.043865
0.834198 0.563760 0.044229
0.860812 0.564125 0.044594
0.009554 0.583579 0.037841
0.035980 0.583376 0.037449
0.062417 0.583210 0.037107
0.088869 0.583086 0.036820
0.115336 0.583009 0.036596
0.141821 0.582984 0.036441
0.168325 0.583016 0.036361
0.194849 0.583110 0.036365
0.221396 0.583271 0.036458
0.247966 0.583504 0.036647
0.274563 0.583814 0.036939
0.301177 0.584177 0.037302
0.327792 0.584542 0.037667
0.354406 0.584906 0.038031
0.381021 0.585271 0.038396
0.407635 0.585635 0.038760
0.434250 0.586000 0.039125
0.460865 0.586365 0.039490
0.487479 0.586729 0.039854
0.514094 0.587094 0.040219
0.540708 0.587458 0.040583
0.567323 0.587823 0.040948
0.593938 0.588187 0.041313
0.620552 0.588552 0.041677
0.647167 0.588917 0.042042
0.673781 0.589281 0.042406
0.700396 0.589646 0.042771
0.727010 0.590010 0.043135
0.753625 0.590375 0.043500
0.780240 0.590740 0.043865
0.806854 0.591104 0.044229
0.833469 0.591469 0.044594
0.860083 0.591833 0.044958
0.008636 0.610720 0.037449
0.035074 0.610554 0.037107
0.061525 0.610430 0.036820
0.087993 0.610353 0.036596
0.114477 0.610328 0.036441
0.140981 0.610360 0.036361
0.167505 0.610453 0.036365
0.194052 0.610614 0.036458
0.220623 0.610847 0.036647
0.247219 0.611157 0.036939
0.273833 0.611521 0.037302
0.300448 0.611885 0.037667
0.327063 0.612250 0.038031
0.353677 0.612615 0.038396
0.380292 0.612979 0.038760
0.406906 0.613344 0.039125
0.433521 0.613708 0.039490
0.460135 0.614073 0.039854
0.486750 0.614437 0.040219
0.513365 0.614802 0.040583
0.539979 0.615167 0.040948
0.566594 0.615531 0.041313
0.593208 0.615896 0.041677
0.619823 0.616260 0.042042
0.646437 0.616625 0.042406
0.673052 0.616990 0.042771
0.699667 0.617354 0.043135
0.726281 0.617719 0.043500
0.752896 0.618083 0.043865
0.779510 0.618448 0.044229
0.806125 0.618812 0.044594
0.832740 0.619177 0.044958
0.860646 0.618896 0.044677
0.007730 0.637898 0.037107
0.034182 0.637774 0.036820
0.060649 0.637697 0.036596
0.087134 0.637672 0.036441
0.113637 0.637703 0.036361
0.140162 0.637797 0.036365
0.166708 0.637958 0.036458
0.193279 0.638191 0.036647
0.219875 0.638501 0.036939
0.246490 0.638865 0.037302
0.273104 0.639229 0.037667
0.299719 0.639594 0.038031
0.326333 0.639958 0.038396
0.352948 0.640323 0.038760
0.379563 0.640688 0.039125
0.406177 0.641052 0.039490
0.432792 0.641417 0.039854
0.459406 0.641781 0.040219
0.486021 0.642146 0.040583
0.512635 0.642510 0.040948
0.539250 0.642875 0.041313
0.565865 0.643240 0.041677
0.592479 0.643604 0.042042
0.619094 0.643969 0.042406
0.645708 0.644333 0.042771
0.672323 0.644698 0.043135
0.698937 0.645062 0.043500
0.725552 0.645427 0.043865
0.752167 0.645792 0.044229
0.778781 0.646156 0.044594
0.805396 0.646521 0.044958
0.833302 0.646240 0.044677
0.861375 0.645875 0.044313
0.006838 0.665118 0.036820
0.033305 0.665041 0.036596
0.059790 0.665015 0.036441
0.086293 0.665047 0.036361
0.112818 0.665141 0.036365
0.139364 0.665302 0.036458
0.165935 0.665535 0.036647
0.192532 0.665845 0.036939
0.219146 0.666208 0.037302
0.245760 0.666573 0.037667
0.272375 0.666938 0.038031
0.298990 0.667302 0.038396
0.325604 0.667667 0.038760
0.352219 0.668031 0.039125
0.378833 0.668396 0.039490
0.405448 0.668760 0.039854
0.432063 0.669125 0.040219
0.458677 0.669490 0.040583
0.485292 0.669854 0.040948
0.511906 0.670219 0.041313
0.538521 0.670583 0.041677
0.565135 0.670948 0.042042
0.591750 0.671312 0.042406
0.618365 0.671677 0.042771
0.644979 0.672042 0.043135
0.671594 0.672406 0.043500
0.698208 0.672771 0.043865
0.724823 0.673135 0.044229
0.751437 0.673500 0.044594
0.778052 0.673865 0.044958
0.805958 0.673583 0.044677
0.834031 0.673219 0.044313
0.862104 0.672854 0.043948
0.005961 0.692384 0.036596
0.032446 0.692359 0.036441
0.058950 0.692391 0.036361
0.085474 0.692485 0.036365
0.112021 0.692646 0.036458
0.138591 0.692879 0.036647
0.165188 0.693189 0.036939
0.191802 0.693552 0.037302
0.218417 0.693917 0.037667
0.245031 0.694281 0.038031
0.271646 0.694646 0.038396
0.298260 0.695010 0.038760
0.324875 0.695375 0.039125
0.351490 0.695740 0.039490
0.378104 0.696104 0.039854
0.404719 0.696469 0.040219
0.431333 0.696833 0.040583
0.457948 0.697198 0.040948
0.484563 0.697562 0.041313
0.511177 0.697927 0.041677
0.537792 0.698292 0.042042
0.564406 0.698656 0.042406
0.591021 0.699021 0.042771
0.617635 0.699385 0.043135
0.644250 0.699750 0.043500
0.670865 0.700115 0.043865
0.697479 0.700479 0.044229
0.724094 0.700844 0.044594
0.750708 0.701208 0.044958
0.778615 0.700927 0.044677
0.806688 0.700562 0.044313
0.834760 0.700198 0.043948
0.862833 0.699833 0.043583
0.005102 0.719703 0.036441
0.031606 0.719735 0.036361
0.058130 0.719828 0.036365
0.084677 0.719989 0.036458
0.111248 0.720222 0.036647
0.137844 0.720532 0.036939
0.164458 0.720896 0.037302
0.191073 0.721260 0.037667
0.217687 0.721625 0.038031
0.244302 0.721990 0.038396
0.270917 0.722354 0.038760
0.297531 0.722719 0.039125
0.324146 0.723083 0.039490
0.350760 0.723448 0.039854
0.377375 0.723812 0.040219
0.403990 0.724177 0.040583
0.430604 0.724542 0.040948
0.457219 0.724906 0.041313
0.483833 0.725271 0.041677
0.510448 0.725635 0.042042
0.537062 0.726000 0.042406
0.563677 0.726365 0.042771
0.590292 0.726729 0.043135
0.616906 0.727094 0.043500
0.643521 0.727458 0.043865
0.670135 0.727823 0.044229
0.696750 0.728187 0.044594
0.723365 0.728552 0.044958
0.751271 0.728271 0.044677
0.779344 0.727906 0.044313
0.807417 0.727542 0.043948
0.835490 0.727177 0.043583
0.863563 0.726812 0.043219
0.004262 0.747078 0.036361
0.030787 0.747172 0.036365
0.057333 0.747333 0.036458
0.083904 0.747566 0.036647
0.110500 0.747876 0.036939
0.137115 0.748240 0.037302
0.163729 0.748604 0.037667
0.190344 0.748969 0.038031
0.216958 0.749333 0.038396
0.243573 0.749698 0.038760
0.270188 0.750063 0.039125
0.296802 0.750427 0.039490
0.323417 0.750792 0.039854
0.350031 0.751156 0.040219
0.376646 0.751521 0.040583
0.403260 0.751885 0.040948
0.429875 0.752250 0.041313
0.456490 0.752615 0.041677
0.483104 0.752979 0.042042
0.509719 0.753344 0.042406
0.536333 0.753708 0.042771
0.562948 0.754073 0.043135
0.589562 0.754437 0.043500
0.616177 0.754802 0.043865
0.642792 0.755167 0.044229
0.669406 0.755531 0.044594
0.696021 0.755896 0.044958
0.723927 0.755615 0.044677
