Examples/LUT/Teal_Orange_Custom.cube
TITLE "Teal & Orange - Custom Generated"
LUT_3D_SIZE 9
0.027902 0.040705 0.045606
0.133915 0.040828 0.045284
0.239666 0.040166 0.043916
0.345264 0.039043 0.041932
0.450816 0.037781 0.039763
0.556429 0.036704 0.037841
0.662211 0.036134 0.036596
0.768271 0.036396 0.036458
0.874667 0.037667 0.037667
0.024540 0.150203 0.045284
0.130291 0.149541 0.043916
0.235889 0.148418 0.041932
0.341441 0.147156 0.039763
0.447054 0.146079 0.037841
0.552836 0.145509 0.036596
0.658896 0.145771 0.036458
0.765292 0.147042 0.037667
0.871750 0.148500 0.039125
0.020916 0.258916 0.043916
0.126514 0.257793 0.041932
0.232066 0.256531 0.039763
0.337679 0.255454 0.037841
0.443461 0.254884 0.036596
0.549521 0.255146 0.036458
0.655917 0.256417 0.037667
0.762375 0.257875 0.039125
0.868833 0.259333 0.040583
0.017139 0.367168 0.041932
0.122691 0.365906 0.039763
0.228304 0.364829 0.037841
0.334086 0.364259 0.036596
0.440146 0.364521 0.036458
0.546542 0.365792 0.037667
0.653000 0.367250 0.039125
0.759458 0.368708 0.040583
0.865917 0.370167 0.042042
0.013316 0.475281 0.039763
0.118929 0.474204 0.037841
0.224711 0.473634 0.036596
0.330771 0.473896 0.036458
0.437167 0.475167 0.037667
0.543625 0.476625 0.039125
0.650083 0.478083 0.040583
0.756542 0.479542 0.042042
0.863000 0.481000 0.043500
0.009554 0.583579 0.037841
0.115336 0.583009 0.036596
0.221396 0.583271 0.036458
0.327792 0.584542 0.037667
0.434250 0.586000 0.039125
0.540708 0.587458 0.040583
0.647167 0.588917 0.042042
0.753625 0.590375 0.043500
0.860083 0.591833 0.044958
0.005961 0.692384 0.036596
0.112021 0.692646 0.036458
0.218417 0.693917 0.037667
0.324875 0.695375 0.039125
0.431333 0.696833 0.040583
0.537792 0.698292 0.042042
0.644250 0.699750 0.043500
0.750708 0.701208 0.044958
0.862833 0.699833 0.043583
0.002646 0.802021 0.036458
0.109042 0.803292 0.037667
0.215500 0.804750 0.039125
0.321958 0.806208 0.040583
0.428417 0.807667 0.042042
0.534875 0.809125 0.043500
0.641333 0.810583 0.044958
0.753458 0.809208 0.043583
0.865750 0.807750 0.042125
0.000000 0.912667 0.037667
0.106125 0.914125 0.039125
0.212583 0.915583 0.040583
0.319042 0.917042 0.042042
0.425500 0.918500 0.043500
0.531958 0.919958 0.044958
0.644083 0.918583 0.043583
0.756375 0.917125 0.042125
0.868667 0.915667 0.040667
0.024540 0.040828 0.154659
0.130291 0.040166 0.153291
0.235889 0.039043 0.151307
0.341441 0.037781 0.149138
0.447054 0.036704 0.147216
0.552836 0.036134 0.145971
0.658896 0.036396 0.145833
0.765292 0.037667 0.147042
0.871750 0.039125 0.148500
0.020916 0.149541 0.153291
0.126514 0.148418 0.151307
0.232066 0.147156 0.149138
0.337679 0.146079 0.147216
0.443461 0.145509 0.145971
0.549521 0.145771 0.145833
0.655917 0.147042 0.147042
0.762375 0.148500 0.148500
0.868833 0.149958 0.149958
0.017139 0.257793 0.151307
0.122691 0.256531 0.149138
0.228304 0.255454 0.147216
0.334086 0.254884 0.145971
0.440146 0.255146 0.145833
0.546542 0.256417 0.147042
0.653000 0.257875 0.148500
0.759458 0.259333 0.149958
0.865917 0.260792 0.151417
0.013316 0.365906 0.149138
0.118929 0.364829 0.147216
0.224711 0.364259 0.145971
0.330771 0.364521 0.145833
0.437167 0.365792 0.147042
0.543625 0.367250 0.148500
0.650083 0.368708 0.149958
0.756542 0.370167 0.151417
0.863000 0.371625 0.152875
0.009554 0.474204 0.147216
0.115336 0.473634 0.145971
0.221396 0.473896 0.145833
0.327792 0.475167 0.147042
0.434250 0.476625 0.148500
0.540708 0.478083 0.149958
0.647167 0.479542 0.151417
0.753625 0.481000 0.152875
0.860083 0.482458 0.154333
0.005961 0.583009 0.145971
0.112021 0.583271 0.145833
0.218417 0.584542 0.147042
0.324875 0.586000 0.148500
0.431333 0.587458 0.149958
0.537792 0.588917 0.151417
0.644250 0.590375 0.152875
0.750708 0.591833 0.154333
0.862833 0.590458 0.152958
0.002646 0.692646 0.145833
0.109042 0.693917 0.147042
0.215500 0.695375 0.148500
0.321958 0.696833 0.149958
0.428417 0.698292 0.151417
0.534875 0.699750 0.152875
0.641333 0.701208 0.154333
0.753458 0.699833 0.152958
0.865750 0.698375 0.151500
0.000000 0.803292 0.147042
0.106125 0.804750 0.148500
0.212583 0.806208 0.149958
0.319042 0.807667 0.151417
0.425500 0.809125 0.152875
0.531958 0.810583 0.154333
0.644083 0.809208 0.152958
0.756375 0.807750 0.151500
0.868667 0.806292 0.150042
0.000000 0.914125 0.148500
0.103208 0.915583 0.149958
0.209667 0.917042 0.151417
0.316125 0.918500 0.152875
0.422583 0.919958 0.154333
0.534708 0.918583 0.152958
0.647000 0.917125 0.151500
0.759292 0.915667 0.150042
0.871583 0.914208 0.148583
0.020916 0.040166 0.262666
0.126514 0.039043 0.260682
0.232066 0.037781 0.258513
0.337679 0.036704 0.256591
0.443461 0.036134 0.255346
0.549521 0.036396 0.255208
0.655917 0.037667 0.256417
0.762375 0.039125 0.257875
0.868833 0.040583 0.259333
0.017139 0.148418 0.260682
0.122691 0.147156 0.258513
0.228304 0.146079 0.256591
0.334086 0.145509 0.255346
0.440146 0.145771 0.255208
0.546542 0.147042 0.256417
0.653000 0.148500 0.257875
0.759458 0.149958 0.259333
0.865917 0.151417 0.260792
0.013316 0.256531 0.258513
0.118929 0.255454 0.256591
0.224711 0.254884 0.255346
0.330771 0.255146 0.255208
0.437167 0.256417 0.256417
0.543625 0.257875 0.257875
0.650083 0.259333 0.259333
0.756542 0.260792 0.260792
0.863000 0.262250 0.262250
0.009554 0.364829 0.256591
0.115336 0.364259 0.255346
0.221396 0.364521 0.255208
0.327792 0.365792 0.256417
0.434250 0.367250 0.257875
0.540708 0.368708 0.259333
0.647167 0.370167 0.260792
0.753625 0.371625 0.262250
0.860083 0.373083 0.263708
0.005961 0.473634 0.255346
0.112021 0.473896 0.255208
0.218417 0.475167 0.256417
0.324875 0.476625 0.257875
0.431333 0.478083 0.259333
0.537792 0.479542 0.260792
0.644250 0.481000 0.262250
0.750708 0.482458 0.263708
0.862833 0.481083 0.262333
0.002646 0.583271 0.255208
0.109042 0.584542 0.256417
0.215500 0.586000 0.257875
0.321958 0.587458 0.259333
0.428417 0.588917 0.260792
0.534875 0.590375 0.262250
0.641333 0.591833 0.263708
0.753458 0.590458 0.262333
0.865750 0.589000 0.260875
0.000000 0.693917 0.256417
0.106125 0.695375 0.257875
0.212583 0.696833 0.259333
0.319042 0.698292 0.260792
0.425500 0.699750 0.262250
0.531958 0.701208 0.263708
0.644083 0.699833 0.262333
0.756375 0.698375 0.260875
0.868667 0.696917 0.259417
0.000000 0.804750 0.257875
0.103208 0.806208 0.259333
0.209667 0.807667 0.260792
0.316125 0.809125 0.262250
0.422583 0.810583 0.263708
0.534708 0.809208 0.262333
0.647000 0.807750 0.260875
0.759292 0.806292 0.259417
0.871583 0.804833 0.257958
0.000000 0.915583 0.259333
0.100292 0.917042 0.260792
0.206750 0.918500 0.262250
0.313208 0.919958 0.263708
0.425333 0.918583 0.262333
0.537625 0.917125 0.260875
0.649917 0.915667 0.259417
0.762208 0.914208 0.257958
0.874500 0.912750 0.256500
0.017139 0.039043 0.370057
0.122691 0.037781 0.367888
0.228304 0.036704 0.365966
0.334086 0.036134 0.364721
0.440146 0.036396 0.364583
0.546542 0.037667 0.365792
0.653000 0.039125 0.367250
0.759458 0.040583 0.368708
0.865917 0.042042 0.370167
0.013316 0.147156 0.367888
0.118929 0.146079 0.365966
0.224711 0.145509 0.364721
0.330771 0.145771 0.364583
0.437167 0.147042 0.365792
0.543625 0.148500 0.367250
0.650083 0.149958 0.368708
0.756542 0.151417 0.370167
0.863000 0.152875 0.371625
0.009554 0.255454 0.365966
0.115336 0.254884 0.364721
0.221396 0.255146 0.364583
0.327792 0.256417 0.365792
0.434250 0.257875 0.367250
0.540708 0.259333 0.368708
0.647167 0.260792 0.370167
0.753625 0.262250 0.371625
0.860083 0.263708 0.373083
0.005961 0.364259 0.364721
0.112021 0.364521 0.364583
0.218417 0.365792 0.365792
0.324875 0.367250 0.367250
0.431333 0.368708 0.368708
0.537792 0.370167 0.370167
0.644250 0.371625 0.371625
0.750708 0.373083 0.373083
0.862833 0.371708 0.371708
0.002646 0.473896 0.364583
0.109042 0.475167 0.365792
0.215500 0.476625 0.367250
0.321958 0.478083 0.368708
0.428417 0.479542 0.370167
0.534875 0.481000 0.371625
0.641333 0.482458 0.373083
0.753458 0.481083 0.371708
0.865750 0.479625 0.370250
0.000000 0.584542 0.365792
0.106125 0.586000 0.367250
0.212583 0.587458 0.368708
0.319042 0.588917 0.370167
0.425500 0.590375 0.371625
0.531958 0.591833 0.373083
0.644083 0.590458 0.371708
0.756375 0.589000 0.370250
0.868667 0.587542 0.368792
0.000000 0.695375 0.367250
0.103208 0.696833 0.368708
0.209667 0.698292 0.370167
0.316125 0.699750 0.371625
0.422583 0.701208 0.373083
0.534708 0.699833 0.371708
0.647000 0.698375 0.370250
0.759292 0.696917 0.368792
0.871583 0.695458 0.367333
0.000000 0.806208 0.368708
0.100292 0.807667 0.370167
0.206750 0.809125 0.371625
0.313208 0.810583 0.373083
0.425333 0.809208 0.371708
0.537625 0.807750 0.370250
0.649917 0.806292 0.368792
0.762208 0.804833 0.367333
0.874500 0.803375 0.365875
0.000000 0.917042 0.370167
0.097375 0.918500 0.371625
0.203833 0.919958 0.373083
0.315958 0.918583 0.371708
0.428250 0.917125 0.370250
0.540542 0.915667 0.368792
0.652833 0.914208 0.367333
0.765125 0.912750 0.365875
0.877818 0.911492 0.364316
0.013316 0.037781 0.477263
0.118929 0.036704 0.475341
0.224711 0.036134 0.474096
0.330771 0.036396 0.473958
0.437167 0.037667 0.475167
0.543625 0.039125 0.476625
0.650083 0.040583 0.478083
0.756542 0.042042 0.479542
0.863000 0.043500 0.481000
0.009554 0.146079 0.475341
0.115336 0.145509 0.474096
0.221396 0.145771 0.473958
0.327792 0.147042 0.475167
0.434250 0.148500 0.476625
0.540708 0.149958 0.478083
0.647167 0.151417 0.479542
0.753625 0.152875 0.481000
0.860083 0.154333 0.482458
0.005961 0.254884 0.474096
0.112021 0.255146 0.473958
0.218417 0.256417 0.475167
0.324875 0.257875 0.476625
0.431333 0.259333 0.478083
0.537792 0.260792 0.479542
0.644250 0.262250 0.481000
0.750708 0.263708 0.482458
0.862833 0.262333 0.481083
0.002646 0.364521 0.473958
0.109042 0.365792 0.475167
0.215500 0.367250 0.476625
0.321958 0.368708 0.478083
0.428417 0.370167 0.479542
0.534875 0.371625 0.481000
0.641333 0.373083 0.482458
0.753458 0.371708 0.481083
0.865750 0.370250 0.479625
0.000000 0.475167 0.475167
0.106125 0.476625 0.476625
0.212583 0.478083 0.478083
0.319042 0.479542 0.479542
0.425500 0.481000 0.481000
0.531958 0.482458 0.482458
0.644083 0.481083 0.481083
0.756375 0.479625 0.479625
0.868667 0.478167 0.478167
0.000000 0.586000 0.476625
0.103208 0.587458 0.478083
0.209667 0.588917 0.479542
0.316125 0.590375 0.481000
0.422583 0.591833 0.482458
0.534708 0.590458 0.481083
0.647000 0.589000 0.479625
0.759292 0.587542 0.478167
0.871583 0.586083 0.476708
0.000000 0.696833 0.478083
0.100292 0.698292 0.479542
0.206750 0.699750 0.481000
0.313208 0.701208 0.482458
0.425333 0.699833 0.481083
0.537625 0.698375 0.479625
0.649917 0.696917 0.478167
0.762208 0.695458 0.476708
0.874500 0.694000 0.475250
0.000000 0.807667 0.479542
0.097375 0.809125 0.481000
0.203833 0.810583 0.482458
0.315958 0.809208 0.481083
0.428250 0.807750 0.479625
0.540542 0.806292 0.478167
0.652833 0.804833 0.476708
0.765125 0.803375 0.475250
0.877818 0.802117 0.473691
0.000000 0.918500 0.481000
0.094458 0.919958 0.482458
0.206583 0.918583 0.481083
0.318875 0.917125 0.479625
0.431167 0.915667 0.478167
0.543458 0.914208 0.476708
0.655750 0.912750 0.475250
0.768443 0.911492 0.473691
0.883774 0.911554 0.471473
0.009554 0.036704 0.584716
0.115336 0.036134 0.583471
0.221396 0.036396 0.583333
0.327792 0.037667 0.584542
0.434250 0.039125 0.586000
0.540708 0.040583 0.587458
0.647167 0.042042 0.588917
0.753625 0.043500 0.590375
0.860083 0.044958 0.591833
0.005961 0.145509 0.583471
0.112021 0.145771 0.583333
0.218417 0.147042 0.584542
0.324875 0.148500 0.586000
0.431333 0.149958 0.587458
0.537792 0.151417 0.588917
0.644250 0.152875 0.590375
0.750708 0.154333 0.591833
0.862833 0.152958 0.590458
0.002646 0.255146 0.583333
0.109042 0.256417 0.584542
0.215500 0.257875 0.586000
0.321958 0.259333 0.587458
0.428417 0.260792 0.588917
0.534875 0.262250 0.590375
0.641333 0.263708 0.591833
0.753458 0.262333 0.590458
0.865750 0.260875 0.589000
0.000000 0.365792 0.584542
0.106125 0.367250 0.586000
0.212583 0.368708 0.587458
0.319042 0.370167 0.588917
0.425500 0.371625 0.590375
0.531958 0.373083 0.591833
0.644083 0.371708 0.590458
0.756375 0.370250 0.589000
0.868667 0.368792 0.587542
0.000000 0.476625 0.586000
0.103208 0.478083 0.587458
0.209667 0.479542 0.588917
0.316125 0.481000 0.590375
0.422583 0.482458 0.591833
0.534708 0.481083 0.590458
0.647000 0.479625 0.589000
0.759292 0.478167 0.587542
0.871583 0.476708 0.586083
0.000000 0.587458 0.587458
0.100292 0.588917 0.588917
0.206750 0.590375 0.590375
0.313208 0.591833 0.591833
0.425333 0.590458 0.590458
0.537625 0.589000 0.589000
0.649917 0.587542 0.587542
0.762208 0.586083 0.586083
0.874500 0.584625 0.584625
0.000000 0.698292 0.588917
0.097375 0.699750 0.590375
0.203833 0.701208 0.591833
0.315958 0.699833 0.590458
0.428250 0.698375 0.589000
0.540542 0.696917 0.587542
0.652833 0.695458 0.586083
0.765125 0.694000 0.584625
0.877818 0.692742 0.583066
0.000000 0.809125 0.590375
0.094458 0.810583 0.591833
0.206583 0.809208 0.590458
0.318875 0.807750 0.589000
0.431167 0.806292 0.587542
0.543458 0.804833 0.586083
0.655750 0.803375 0.584625
0.768443 0.802117 0.583066
0.883774 0.802179 0.580848
0.000000 0.919958 0.591833
0.097208 0.918583 0.590458
0.209500 0.917125 0.589000
0.321792 0.915667 0.587542
0.434083 0.914208 0.586083
0.546375 0.912750 0.584625
0.659068 0.911492 0.583066
0.774399 0.911554 0.580848
0.891995 0.912748 0.578064
0.005961 0.036134 0.692846
0.112021 0.036396 0.692708
0.218417 0.037667 0.693917
0.324875 0.039125 0.695375
0.431333 0.040583 0.696833
0.537792 0.042042 0.698292
0.644250 0.043500 0.699750
0.750708 0.044958 0.701208
0.862833 0.043583 0.699833
0.002646 0.145771 0.692708
0.109042 0.147042 0.693917
0.215500 0.148500 0.695375
0.321958 0.149958 0.696833
0.428417 0.151417 0.698292
0.534875 0.152875 0.699750
0.641333 0.154333 0.701208
0.753458 0.152958 0.699833
0.865750 0.151500 0.698375
0.000000 0.256417 0.693917
0.106125 0.257875 0.695375
0.212583 0.259333 0.696833
0.319042 0.260792 0.698292
0.425500 0.262250 0.699750
0.531958 0.263708 0.701208
0.644083 0.262333 0.699833
0.756375 0.260875 0.698375
0.868667 0.259417 0.696917
0.000000 0.367250 0.695375
0.103208 0.368708 0.696833
0.209667 0.370167 0.698292
0.316125 0.371625 0.699750
0.422583 0.373083 0.701208
0.534708 0.371708 0.699833
0.647000 0.370250 0.698375
0.759292 0.368792 0.696917
0.871583 0.367333 0.695458
0.000000 0.478083 0.696833
0.100292 0.479542 0.698292
0.206750 0.481000 0.699750
0.313208 0.482458 0.701208
0.425333 0.481083 0.699833
0.537625 0.479625 0.698375
0.649917 0.478167 0.696917
0.762208 0.476708 0.695458
0.874500 0.475250 0.694000
0.000000 0.588917 0.698292
0.097375 0.590375 0.699750
0.203833 0.591833 0.701208
0.315958 0.590458 0.699833
0.428250 0.589000 0.698375
0.540542 0.587542 0.696917
0.652833 0.586083 0.695458
0.765125 0.584625 0.694000
0.877818 0.583367 0.692441
0.000000 0.699750 0.699750
0.094458 0.701208 0.701208
0.206583 0.699833 0.699833
0.318875 0.698375 0.698375
0.431167 0.696917 0.696917
0.543458 0.695458 0.695458
0.655750 0.694000 0.694000
0.768443 0.692742 0.692441
0.883774 0.692804 0.690223
0.000000 0.810583 0.701208
0.097208 0.809208 0.699833
0.209500 0.807750 0.698375
0.321792 0.806292 0.696917
0.434083 0.804833 0.695458
0.546375 0.803375 0.694000
0.659068 0.802117 0.692441
0.774399 0.802179 0.690223
0.891995 0.803373 0.687439
0.000000 0.918583 0.699833
0.100125 0.917125 0.698375
0.212417 0.915667 0.696917
0.324708 0.914208 0.695458
0.437000 0.912750 0.694000
0.549693 0.911492 0.692441
0.665024 0.911554 0.690223
0.782620 0.912748 0.687439
0.901619 0.914643 0.684304
0.002646 0.036396 0.802083
0.109042 0.037667 0.803292
0.215500 0.039125 0.804750
0.321958 0.040583 0.806208
0.428417 0.042042 0.807667
0.534875 0.043500 0.809125
0.641333 0.044958 0.810583
0.753458 0.043583 0.809208
0.865750 0.042125 0.807750
0.000000 0.147042 0.803292
0.106125 0.148500 0.804750
0.212583 0.149958 0.806208
0.319042 0.151417 0.807667
0.425500 0.152875 0.809125
0.531958 0.154333 0.810583
0.644083 0.152958 0.809208
0.756375 0.151500 0.807750
0.868667 0.150042 0.806292
0.000000 0.257875 0.804750
0.103208 0.259333 0.806208
0.209667 0.260792 0.807667
0.316125 0.262250 0.809125
0.422583 0.263708 0.810583
0.534708 0.262333 0.809208
0.647000 0.260875 0.807750
0.759292 0.259417 0.806292
0.871583 0.257958 0.804833
0.000000 0.368708 0.806208
0.100292 0.370167 0.807667
0.206750 0.371625 0.809125
0.313208 0.373083 0.810583
0.425333 0.371708 0.809208
0.537625 0.370250 0.807750
0.649917 0.368792 0.806292
0.762208 0.367333 0.804833
0.874500 0.365875 0.803375
0.000000 0.479542 0.807667
0.097375 0.481000 0.809125
0.203833 0.482458 0.810583
0.315958 0.481083 0.809208
0.428250 0.479625 0.807750
0.540542 0.478167 0.806292
0.652833 0.476708 0.804833
0.765125 0.475250 0.803375
0.877818 0.473992 0.801816
0.000000 0.590375 0.809125
0.094458 0.591833 0.810583
0.206583 0.590458 0.809208
0.318875 0.589000 0.807750
0.431167 0.587542 0.806292
0.543458 0.586083 0.804833
0.655750 0.584625 0.803375
0.768443 0.583367 0.801816
0.883774 0.583429 0.799598
0.000000 0.701208 0.810583
0.097208 0.699833 0.809208
0.209500 0.698375 0.807750
0.321792 0.696917 0.806292
0.434083 0.695458 0.804833
0.546375 0.694000 0.803375
0.659068 0.692742 0.801816
0.774399 0.692804 0.799598
0.891995 0.693998 0.796814
0.000000 0.809208 0.809208
0.100125 0.807750 0.807750
0.212417 0.806292 0.806292
0.324708 0.804833 0.804833
0.437000 0.803375 0.803375
0.549693 0.802117 0.801816
0.665024 0.802179 0.799598
0.782620 0.803373 0.796814
0.901619 0.805268 0.793679
0.000000 0.917125 0.807750
0.103042 0.915667 0.806292
0.215333 0.914208 0.804833
0.327625 0.912750 0.803375
0.440318 0.911492 0.801816
0.555649 0.911554 0.799598
0.673245 0.912748 0.796814
0.792244 0.914643 0.793679
0.911784 0.916809 0.790408
0.000000 0.037667 0.912667
0.106125 0.039125 0.914125
0.212583 0.040583 0.915583
0.319042 0.042042 0.917042
0.425500 0.043500 0.918500
0.531958 0.044958 0.919958
0.644083 0.043583 0.918583
0.756375 0.042125 0.917125
0.868667 0.040667 0.915667
0.000000 0.148500 0.914125
0.103208 0.149958 0.915583
0.209667 0.151417 0.917042
0.316125 0.152875 0.918500
0.422583 0.154333 0.919958
0.534708 0.152958 0.918583
0.647000 0.151500 0.917125
0.759292 0.150042 0.915667
0.871583 0.148583 0.914208
0.000000 0.259333 0.915583
0.100292 0.260792 0.917042
0.206750 0.262250 0.918500
0.313208 0.263708 0.919958
0.425333 0.262333 0.918583
0.537625 0.260875 0.917125
0.649917 0.259417 0.915667
0.762208 0.257958 0.914208
0.874500 0.256500 0.912750
0.000000 0.370167 0.917042
0.097375 0.371625 0.918500
0.203833 0.373083 0.919958
0.315958 0.371708 0.918583
0.428250 0.370250 0.917125
0.540542 0.368792 0.915667
0.652833 0.367333 0.914208
0.765125 0.365875 0.912750
0.877818 0.364617 0.911191
0.000000 0.481000 0.918500
0.094458 0.482458 0.919958
0.206583 0.481083 0.918583
0.318875 0.479625 0.917125
0.431167 0.478167 0.915667
0.543458 0.476708 0.914208
0.655750 0.475250 0.912750
0.768443 0.473992 0.911191
0.883774 0.474054 0.908973
0.000000 0.591833 0.919958
0.097208 0.590458 0.918583
0.209500 0.589000 0.917125
0.321792 0.587542 0.915667
0.434083 0.586083 0.914208
0.546375 0.584625 0.912750
0.659068 0.583367 0.911191
0.774399 0.583429 0.908973
0.891995 0.584623 0.906189
0.000000 0.699833 0.918583
0.100125 0.698375 0.917125
0.212417 0.696917 0.915667
0.324708 0.695458 0.914208
0.437000 0.694000 0.912750
0.549693 0.692742 0.911191
0.665024 0.692804 0.908973
0.782620 0.693998 0.906189
0.901619 0.695893 0.903054
0.000000 0.807750 0.917125
0.103042 0.806292 0.915667
0.215333 0.804833 0.914208
0.327625 0.803375 0.912750
0.440318 0.802117 0.911191
0.555649 0.802179 0.908973
0.673245 0.803373 0.906189
0.792244 0.805268 0.903054
0.911784 0.807434 0.899783
0.000000 0.915667 0.915667
0.105958 0.914208 0.914208
0.218250 0.912750 0.912750
0.330943 0.911492 0.911191
0.446274 0.911554 0.908973
0.563870 0.912748 0.906189
0.682869 0.914643 0.903054
0.802409 0.916809 0.899783
0.921630 0.918815 0.896593
