Examples/LUT/Teal_Orange_Custom.cube
TITLE "Teal & Orange - Custom Generated"
LUT_3D_SIZE 5
0.027902 0.040705 0.045606
0.239666 0.040166 0.043916
0.450816 0.037781 0.039763
0.662211 0.036134 0.036596
0.874667 0.037667 0.037667
0.020916 0.258916 0.043916
0.232066 0.256531 0.039763
0.443461 0.254884 0.036596
0.655917 0.256417 0.037667
0.868833 0.259333 0.040583
0.013316 0.475281 0.039763
0.224711 0.473634 0.036596
0.437167 0.475167 0.037667
0.650083 0.478083 0.040583
0.863000 0.481000 0.043500
0.005961 0.692384 0.036596
0.218417 0.693917 0.037667
0.431333 0.696833 0.040583
0.644250 0.699750 0.043500
0.862833 0.699833 0.043583
0.000000 0.912667 0.037667
0.212583 0.915583 0.040583
0.425500 0.918500 0.043500
0.644083 0.918583 0.043583
0.868667 0.915667 0.040667
0.020916 0.040166 0.262666
0.232066 0.037781 0.258513
0.443461 0.036134 0.255346
0.655917 0.037667 0.256417
0.868833 0.040583 0.259333
0.013316 0.256531 0.258513
0.224711 0.254884 0.255346
0.437167 0.256417 0.256417
0.650083 0.259333 0.259333
0.863000 0.262250 0.262250
0.005961 0.473634 0.255346
0.218417 0.475167 0.256417
0.431333 0.478083 0.259333
0.644250 0.481000 0.262250
0.862833 0.481083 0.262333
0.000000 0.693917 0.256417
0.212583 0.696833 0.259333
0.425500 0.699750 0.262250
0.644083 0.699833 0.262333
0.868667 0.696917 0.259417
0.000000 0.915583 0.259333
0.206750 0.918500 0.262250
0.425333 0.918583 0.262333
0.649917 0.915667 0.259417
0.874500 0.912750 0.256500
0.013316 0.037781 0.477263
0.224711 0.036134 0.474096
0.437167 0.037667 0.475167
0.650083 0.040583 0.478083
0.863000 0.043500 0.481000
0.005961 0.254884 0.474096
0.218417 0.256417 0.475167
0.431333 0.259333 0.478083
0.644250 0.262250 0.481000
0.862833 0.262333 0.481083
0.000000 0.475167 0.475167
0.212583 0.478083 0.478083
0.425500 0.481000 0.481000
0.644083 0.481083 0.481083
0.868667 0.478167 0.478167
0.000000 0.696833 0.478083
0.206750 0.699750 0.481000
0.425333 0.699833 0.481083
0.649917 0.696917 0.478167
0.874500 0.694000 0.475250
0.000000 0.918500 0.481000
0.206583 0.918583 0.481083
0.431167 0.915667 0.478167
0.655750 0.912750 0.475250
0.883774 0.911554 0.471473
0.005961 0.036134 0.692846
0.218417 0.037667 0.693917
0.431333 0.040583 0.696833
0.644250 0.043500 0.699750
0.862833 0.043583 0.699833
0.000000 0.256417 0.693917
0.212583 0.259333 0.696833
0.425500 0.262250 0.699750
0.644083 0.262333 0.699833
0.868667 0.259417 0.696917
0.000000 0.478083 0.696833
0.206750 0.481000 0.699750
0.425333 0.481083 0.699833
0.649917 0.478167 0.696917
0.874500 0.475250 0.694000
0.000000 0.699750 0.699750
0.206583 0.699833 0.699833
0.431167 0.696917 0.696917
0.655750 0.694000 0.694000
0.883774 0.692804 0.690223
0.000000 0.918583 0.699833
0.212417 0.915667 0.696917
0.437000 0.912750 0.694000
0.665024 0.911554 0.690223
0.901619 0.914643 0.684304
0.000000 0.037667 0.912667
0.212583 0.040583 0.915583
0.425500 0.043500 0.918500
0.644083 0.043583 0.918583
0.868667 0.040667 0.915667
0.000000 0.259333 0.915583
0.206750 0.262250 0.918500
0.425333 0.262333 0.918583
0.649917 0.259417 0.915667
0.874500 0.256500 0.912750
0.000000 0.481000 0.918500
0.206583 0.481083 0.918583
0.431167 0.478167 0.915667
0.655750 0.475250 0.912750
0.883774 0.474054 0.908973
0.000000 0.699833 0.918583
0.212417 0.696917 0.915667
0.437000 0.694000 0.912750
0.665024 0.692804 0.908973
0.901619 0.695893 0.903054
0.000000 0.915667 0.915667
0.218250 0.912750 0.912750
0.446274 0.911554 0.908973
0.682869 0.914643 0.903054
0.921630 0.918815 0.896593
